/* XPM */
static char *_[] = {
/* columns rows colors chars-per-pixel */
"64 64 8 1 ",
"  c #000001",
". c #06060B",
"X c #1C1A30",
"o c #1F1B33",
"O c #34254E",
"+ c #37254E",
"@ c #4D00B2",
"# c #7200FF",
/* pixels */
"      .  OX  XOX      .  OX  XOX      .  OX  XOX      .  OX  XOX",
"   . .  O.  XO.    . .  O.  XO.    . .  O.  XO.    . .  O.  XO. ",
"  OOX  XX.. .X    OOX  XX.. .X    OOX  XX.. .X    OOX  XX.. .X  ",
" OX..X . .   .   OX..X . .   .   OX..X . .   .   OX..X . .   .  ",
" X ..            X ..            X ..            X ..           ",
"...  .    OX    ...  .    OX    ...  .    OX    ...  .    OX    ",
".. .XOOX  X     .. .XOOX  X     .. .XOOX  X     .. .XOOX  X     ",
"  .O.  .     OX   .O.  .     OX   .O.  .     OX   .O.  .     OX ",
"X OX ..XX   X...X OX ..XX   X...X OX ..XX   X...X OX ..XX   X...",
"O   . XX.  . .  O   . XX.  . .  O   . XX.  . .  O   . XX.  . .  ",
".      .    .  X.      .    .  X.      .    .  X.      .    .  X",
" .  .  . OOX.... .  .  . OOX.... .  .  . OOX.... .  .  . OOX....",
" OO. ...XOX .O.  OO. ...XOX .O.  OO. ...XOX .O.  OO. ...XOX .O. ",
"XX.    ...    X XX.    ...    X XX.    ...    X XX.    ...    X ",
" X  . X  ..      X  . X  ..      X  . X  ..      X  . X  ..     ",
".  .  .X.       .  .  .X.       .  .  .X.       .  .  .X.       ",
"      .  OX  XOX      . #### XOX      .  OX  XOX      .  OX  XOX",
"   . .  O.  XO.    . .  ####XO.    . .  O.  XO.    . .  O.  XO. ",
"  OOX  XX.. .X    OOX  X####.X    OOX  XX.. .X    OOX  XX.. .X  ",
" OX..X . .   .   OX..X .#### .   OX..X . .   .   OX..X . .   .  ",
" X ..            X ..   ####     X ..            X ..           ",
"...  .    OX    ...  .  ####    ...  .    OX    ...  .    OX    ",
".. .XOOX  X     .. .XOOX####    .. .XOOX  X     .. .XOOX  X     ",
"  .O.  .     OX   .O.  .#### OX   .O.  .     OX   .O.  .     OX ",
"X OX ..XX   X...X OX ..X####X...X OX ..X########X OX ..XX   X...",
"O   . XX.  . .  O   . XX#### .  O   . XX########O   . XX.  . .  ",
".      .    .  X.      .####.  X.      .########.      .    .  X",
" .  .  . OOX.... .  .  .####.... .  .  .######## .  .  . OOX....",
" OO. ...XOX .O.  OO. ...@@@@#### OO.####@@@@@@@@ OO. ...XOX .O. ",
"XX.    ...    X XX.    .@@@@####XX. ####@@@@@@@@XX.    ...    X ",
" X  . X  ..      X  . X @@@@#### X  ####@@@@@@@@ X  . X  ..     ",
".  .  .X.       .  .  .X@@@@####.  .####@@@@@@@@.  .  .X.       ",
"      .  OX  XOX      .  OX @@@@####@@@@ OX  XOX      .  OX  XOX",
"   . .  O.  XO.    . .  O.  @@@@####@@@@O.  XO.    . .  O.  XO. ",
"  OOX  XX.. .X    OOX  XX.. @@@@####@@@@X.. .X    OOX  XX.. .X  ",
" OX..X . .   .   OX..X . .  @@@@####@@@@ .   .   OX..X . .   .  ",
" X ..            X ..           ####.            X ..           ",
"...  .    OX    ...  .    OX    #### .    OX    ...  .    OX    ",
".. .XOOX  X     .. .XOOX  X     ####XOOX  X     .. .XOOX  X     ",
"  .O.  .     OX   .O.  .     OX ####.  .     OX   .O.  .     OX ",
"X OX ..XX   X...X OX ..XX   X...#### ..XX   X...X OX ..XX   X...",
"O   . XX.  . .  O   . XX.  . .  ####. XX.  . .  O   . XX.  . .  ",
".      .    .  X.      .    .  X####   .    .  X.      .    .  X",
" .  .  . OOX.... .  .  . OOX....####.  . OOX.... .  .  . OOX....",
" OO. ...XOX .O.  OO. ...XOX ####@@@@ ...XOX .O.  OO. ...XOX .O. ",
"XX.    ...    X XX.    ...  ####@@@@   ...    X XX.    ...    X ",
" X  . X  ..      X  . X  .. ####@@@@. X  ..      X  . X  ..     ",
".  .  .X.       .  .  .X.   ####@@@@  .X.       .  .  .X.       ",
"      .  OX  XOX      .  OX @@@@      .  OX  XOX      .  OX  XOX",
"   . .  O.  XO.    . .  O.  @@@@   . .  O.  XO.    . .  O.  XO. ",
"  OOX  XX.. .X    OOX  XX.. @@@@  OOX  XX.. .X    OOX  XX.. .X  ",
" OX..X . .   .   OX..X . .  @@@@ OX..X . .   .   OX..X . .   .  ",
" X ..            X ..            X ..            X ..           ",
"...  .    OX    ...  .    OX    ...  .    OX    ...  .    OX    ",
".. .XOOX  X     .. .XOOX  X     .. .XOOX  X     .. .XOOX  X     ",
"  .O.  .     OX   .O.  .     OX   .O.  .     OX   .O.  .     OX ",
"X OX ..XX   X...X OX ..XX   X...X OX ..XX   X...X OX ..XX   X...",
"O   . XX.  . .  O   . XX.  . .  O   . XX.  . .  O   . XX.  . .  ",
".      .    .  X.      .    .  X.      .    .  X.      .    .  X",
" .  .  . OOX.... .  .  . OOX.... .  .  . OOX.... .  .  . OOX....",
" OO. ...XOX .O.  OO. ...XOX .O.  OO. ...XOX .O.  OO. ...XOX .O. ",
"XX.    ...    X XX.    ...    X XX.    ...    X XX.    ...    X ",
" X  . X  ..      X  . X  ..      X  . X  ..      X  . X  ..     ",
".  .  .X.       .  .  .X.       .  .  .X.       .  .  .X.       "
};
