/* XPM */
static char *result[] = {
/* columns rows colors chars-per-pixel */
"64 64 13 1 ",
"  c black",
". c #000001",
"X c #030307",
"o c #06060B",
"O c #06070C",
"+ c #06060D",
"@ c #1E1A31",
"# c #1C1932",
"$ c #1F1B33",
"% c #37254E",
"& c #37254F",
"* c #4D00B2",
"= c #7200FF",
/* pixels */
"....    ====            ====    ****%%%%====    ====####****@@@@",
"....    ====            ====    ****%%%%====    ====####****@@@@",
"....    ====            ====    ****%%%%====    ====####****@@@@",
"....    ====            ====    ****%%%%====    ====####****@@@@",
"....    ****============****    &&&&oooo====    ====%%%%oooo    ",
"....    ****============****    &&&&oooo====    ====%%%%oooo    ",
"....    ****============****    &&&&oooo====    ====%%%%oooo    ",
"....    ****============****    &&&&oooo====    ====%%%%oooo    ",
"    ====%%%%************====@@@@========****    ****====        ",
"    ====%%%%************====@@@@========****    ****====        ",
"    ====%%%%************====@@@@========****    ****====        ",
"    ====%%%%************====@@@@========****    ****====        ",
"    ****========oooo$$$$****====********            ====        ",
"    ****========oooo$$$$****====********            ====        ",
"    ****========oooo$$$$****====********            ====        ",
"    ****========oooo$$$$****====********            ====        ",
"========********====    ====****    ========        ========    ",
"========********====    ====****    ========        ========    ",
"========********====    ====****    ========        ========    ",
"========********====    ====****    ========        ========    ",
"********++++    ====oooo====        ====****$$$$====********====",
"********++++    ====oooo====        ====****$$$$====********====",
"********++++    ====oooo====        ====****$$$$====********====",
"********++++    ====oooo====        ====****$$$$====********====",
"oooo++++    oooo============@@@@    ****========****        ****",
"oooo++++    oooo============@@@@    ****========****        ****",
"oooo++++    oooo============@@@@    ****========****        ****",
"oooo++++    oooo============@@@@    ****========****        ****",
"========oooo====************====    ====****====    %%%%@@@@    ",
"========oooo====************====    ====****====    %%%%@@@@    ",
"========oooo====************====    ====****====    %%%%@@@@    ",
"========oooo====************====    ====****====    %%%%@@@@    ",
"********====****XXXX====oooo****====****    ====@@@@oooooooo====",
"********====****XXXX====oooo****====****    ====@@@@oooooooo====",
"********====****XXXX====oooo****====****    ====@@@@oooooooo====",
"********====****XXXX====oooo****====****    ====@@@@oooooooo====",
"%%%%XXXX====    ====****@@@@@@@@====        ****====OOOO====****",
"%%%%XXXX====    ====****@@@@@@@@====        ****====OOOO====****",
"%%%%XXXX====    ====****@@@@@@@@====        ****====OOOO====****",
"%%%%XXXX====    ====****@@@@@@@@====        ****====OOOO====****",
"====    ****    ****====    oooo========        ****====****$$$$",
"====    ****    ****====    oooo========        ****====****$$$$",
"====    ****    ****====    oooo========        ****====****$$$$",
"====    ****    ****====    oooo========        ****====****$$$$",
"****====        ++++============********========oooo====oooooooo",
"****====        ++++============********========oooo====oooooooo",
"****====        ++++============********========oooo====oooooooo",
"****====        ++++============********========oooo====oooooooo",
"    ====&&&&++++====************====%%%%********oooo****========",
"    ====&&&&++++====************====%%%%********oooo****========",
"    ====&&&&++++====************====%%%%********oooo****========",
"    ====&&&&++++====************====%%%%********oooo****========",
"@@@@****========****        oooo****============        ********",
"@@@@****========****        oooo****============        ********",
"@@@@****========****        oooo****============        ********",
"@@@@****========****        oooo****============        ********",
"    @@@@====****========@@@@    ====************========        ",
"    @@@@====****========@@@@    ====************========        ",
"    @@@@====****========@@@@    ====************========        ",
"    @@@@====****========@@@@    ====************========        ",
"++++    ====++++********oooo@@@@====            ********====    ",
"++++    ====++++********oooo@@@@====            ********====    ",
"++++    ====++++********oooo@@@@====            ********====    ",
"++++    ====++++********oooo@@@@====            ********====    "
};
