/* XPM */
static char *_[] = {
/* columns rows colors chars-per-pixel */
"64 64 8 1 ",
"  c #000001",
". c #06060B",
"X c #1C1A30",
"o c #1F1B33",
"O c #34254E",
"+ c #37254E",
"@ c #4D00B2",
"# c #7200FF",
/* pixels */
"      . #### XOX      . #### XOX@@@@  . #### XOX####  . @@@@ XOX",
"   . .  ####XO.    . .  ####XO. @@@@ .  ####XO. #### .  @@@@XO. ",
"  OOX  X####.X    OOX  X####.X  @@@@X  X####.X  ####X  X@@@@.X  ",
" OX..X .#### .   OX..X .#### .  @@@@.X .#### .  ####.X .@@@@ .  ",
" X ..   @@@@############@@@@     X ..   ####    ####.           ",
"...  .  @@@@############@@@@    ...  .  ####    #### .    OX    ",
".. .XOOX@@@@############@@@@    .. .XOOX####    ####XOOX  X     ",
"  .O.  .@@@@############@@@@ OX   .O.  .#### OX ####.  .     OX ",
"X OX####X   @@@@@@@@@@@@####X...########@@@@X...@@@@####X   X...",
"O   ####.  .@@@@@@@@@@@@#### .  ########@@@@ .  @@@@####.  . .  ",
".   ####    @@@@@@@@@@@@####.  X########@@@@.  X@@@@####    .  X",
" .  #### OOX@@@@@@@@@@@@####....########@@@@....@@@@#### OOX....",
" OO.@@@@######## OO. ...@@@@####@@@@@@@@XOX .O.  OO.####XOX .O. ",
"XX. @@@@########XX.    .@@@@####@@@@@@@@..    X XX. ####..    X ",
" X  @@@@######## X  . X @@@@####@@@@@@@@ ..      X  #### ..     ",
".  .@@@@########.  .  .X@@@@####@@@@@@@@.       .  .####.       ",
"########@@@@@@@@####  . ####@@@@    ######## XOX    ######## XOX",
"########@@@@@@@@#### .  ####@@@@   .########XO.    .########XO. ",
"########@@@@@@@@####X  X####@@@@  OO########.X    OO########.X  ",
"########@@@@@@@@####.X .####@@@@ OX.######## .   OX.######## .  ",
"@@@@@@@@        ####.   ####     X .####@@@@    ####@@@@@@@@####",
"@@@@@@@@  OX    #### .  ####    ... ####@@@@    ####@@@@@@@@####",
"@@@@@@@@  X     ####XOOX####    .. .####@@@@    ####@@@@@@@@####",
"@@@@@@@@     OX ####.  .#### OX   .O####@@@@ OX ####@@@@@@@@####",
"X OX ..XX   X...############X...X OX@@@@########@@@@ ..XX   @@@@",
"O   . XX.  . .  ############ .  O   @@@@########@@@@. XX.  .@@@@",
".      .    .  X############.  X.   @@@@########@@@@   .    @@@@",
" .  .  . OOX....############.... .  @@@@########@@@@.  . OOX@@@@",
"########XOX ####@@@@@@@@@@@@#### OO.####@@@@#### OO. ...XOX .O. ",
"########..  ####@@@@@@@@@@@@####XX. ####@@@@####XX.    ...    X ",
"######## .. ####@@@@@@@@@@@@#### X  ####@@@@#### X  . X  ..     ",
"########.   ####@@@@@@@@@@@@####.  .####@@@@####.  .  .X.       ",
"@@@@@@@@####@@@@    #### OX @@@@####@@@@ OX ####      .  OX ####",
"@@@@@@@@####@@@@   .####O.  @@@@####@@@@O.  ####   . .  O.  ####",
"@@@@@@@@####@@@@  OO####X.. @@@@####@@@@X.. ####  OOX  XX.. ####",
"@@@@@@@@####@@@@ OX.#### .  @@@@####@@@@ .  #### OX..X . .  ####",
" X ..   ####    ####@@@@        ####.       @@@@####.   ####@@@@",
"...  .  ####    ####@@@@  OX    #### .    OX@@@@#### .  ####@@@@",
".. .XOOX####    ####@@@@  X     ####XOOX  X @@@@####XOOX####@@@@",
"  .O.  .#### OX ####@@@@     OX ####.  .    @@@@####.  .####@@@@",
"#### ..X@@@@X...@@@@####X   X...########X   X...@@@@####@@@@X...",
"####. XX@@@@ .  @@@@####.  . .  ########.  . .  @@@@####@@@@ .  ",
"####   .@@@@.  X@@@@####    .  X########    .  X@@@@####@@@@.  X",
"####.  .@@@@....@@@@#### OOX....######## OOX....@@@@####@@@@....",
"@@@@####XOX .O.  OO.############@@@@@@@@######## OO.####XOX .O. ",
"@@@@####..    X XX. ############@@@@@@@@########XX. ####..    X ",
"@@@@#### ..      X  ############@@@@@@@@######## X  #### ..     ",
"@@@@####.       .  .############@@@@@@@@########.  .####.       ",
"    #### OX  XOX####@@@@@@@@@@@@####  . @@@@@@@@    @@@@########",
"   .####O.  XO. ####@@@@@@@@@@@@#### .  @@@@@@@@   .@@@@########",
"  OO####X.. .X  ####@@@@@@@@@@@@####X  X@@@@@@@@  OO@@@@########",
" OX.#### .   .  ####@@@@@@@@@@@@####.X .@@@@@@@@ OX.@@@@########",
" X .@@@@########@@@@.           @@@@############ X ..   @@@@@@@@",
"... @@@@########@@@@ .    OX    @@@@############...  .  @@@@@@@@",
".. .@@@@########@@@@XOOX  X     @@@@############.. .XOOX@@@@@@@@",
"  .O@@@@########@@@@.  .     OX @@@@############  .O.  .@@@@@@@@",
"X OX ..X####@@@@########X   X...####@@@@@@@@@@@@########X   X...",
"O   . XX####@@@@########.  . .  ####@@@@@@@@@@@@########.  . .  ",
".      .####@@@@########    .  X####@@@@@@@@@@@@########    .  X",
" .  .  .####@@@@######## OOX....####@@@@@@@@@@@@######## OOX....",
" OO. ...####.O. @@@@@@@@XOX .O. #### ...XOX .O. @@@@@@@@####.O. ",
"XX.    .####  X @@@@@@@@..    X ####   ...    X @@@@@@@@####  X ",
" X  . X ####    @@@@@@@@ ..     ####. X  ..     @@@@@@@@####    ",
".  .  .X####    @@@@@@@@.       ####  .X.       @@@@@@@@####    "
};
