/* XPM */
static char *egg_icon[] = {
/* columns rows colors chars-per-pixel */
"16 16 65 1 ",
"  c None",
". c #040406",
"X c #050407",
"o c #050507",
"O c #060607",
"+ c #060508",
"@ c #070508",
"# c #060509",
"$ c #070509",
"% c #060608",
"& c #070608",
"* c #060609",
"= c #070609",
"- c #070709",
"; c #07050A",
": c #07070A",
"> c #09030B",
", c #09040B",
"< c #08050B",
"1 c #08060A",
"2 c #09060A",
"3 c #08070A",
"4 c #08060B",
"5 c #09060B",
"6 c #08070B",
"7 c #09070B",
"8 c #0A030C",
"9 c #09050C",
"0 c #0B050C",
"q c #0B050D",
"w c #08060C",
"e c #09060C",
"r c #0A060C",
"t c #0B060C",
"y c #0A070C",
"u c #0A060D",
"i c #0B040E",
"p c #0B060E",
"a c #0B070E",
"s c #0C050D",
"d c #0C050E",
"f c #0C040F",
"g c #0C050F",
"h c #0C060F",
"j c #0D060F",
"k c #080809",
"l c #08080A",
"z c #09090A",
"x c #08080B",
"c c #09080B",
"v c #09090B",
"b c #0A080B",
"n c #0A090B",
"m c #0A0A0B",
"M c #0A080C",
"N c #0F0312",
"B c #0D0511",
"V c #0E0510",
"C c #0F0511",
"Z c #0D0710",
"A c #0E0611",
"S c #0F0A11",
"D c #100612",
"F c #120614",
"G c #140518",
/* pixels */
"                ",
"                ",
"                ",
"      wvSZ      ",
"     Zwv:::     ",
"    Zwvv:::w    ",
"   GZvvwwZw:v   ",
"  vvvwwwZwZwX:  ",
"  :wvDwwwwwwww  ",
"  w:vvww::ww:w  ",
"  DwwvZww:::XX  ",
"   wwvwwXXww:   ",
"    vvw:w::w    ",
"      www:      ",
"                ",
"                "
};
