/* XPM */
static char *hotbar[] = {
/* columns rows colors chars-per-pixel */
"182 22 29 1 ",
"  c black",
". c #080904",
"X c #0B0B04",
"o c #0F1004",
"O c #121304",
"+ c #161804",
"@ c #1B1D04",
"# c #1D2004",
"$ c #272505",
"% c #2A2607",
"& c #2E2B0A",
"* c #302C0E",
"= c #332E10",
"- c #332F11",
"; c gray28",
": c gray30",
"> c #565656",
", c #5D5D5D",
"< c #606060",
"1 c gray40",
"2 c #6D6D6D",
"3 c gray44",
"4 c #7E7E7E",
"5 c #808080",
"6 c gray52",
"7 c #8B8B8B",
"8 c #939393",
"9 c gray67",
"0 c #CECECE",
/* pixels */
"                                                                                                                                                                                      ",
" 009988988888888888888888888888888888888888888888888888888888888888888888888888888888888888888888888888888888888888888888888888888888888888888888888888888888888888888888888888888882 ",
" 9,,,1,,1,,,,,,11,,3,4,,,,,1,,,,1,,,2,,314,,1,111,111,1,,,,3,4,,,,,,,,1,,,>,1,,3,5,,,,,,2,,,,,,,,1,3,4,,,1,,3,,,,,,,,,,114,,,,,,,,1,,,,,,,,3,4,,,,,,,,,,,1,1,,11,41,,,,,111,,,1,,,,3; ",
" 91        X X     314, X           X  5,4,    X      X    414,                4,41       o        424,     o     X    4,4,    X           4,4,       X       X4,51         XX     4; ",
" 81 @$$@$$&$$$+$$$$4>41 &$$$$$$$$&%@$$%5,4, $$$$$%$$$$$$@$$5,4, $$$&$@$$$$@$$$$4,4, $$$$$@$$$$@$*$$4,41 $#$$%$$$$@$$&@$3,4, #$$$$$$$&$$$$%$414, $$$$$$$$$$$$$&$3,4, $$$$$$%$$%$*$*$4; ",
" 9, $$$$$$$$$$%$$$$4,4, $$$$$$$$$*%$$&@4,4, @$$$$$$$$$$$$$$314, $$$&$$$$$&$$$$$5,4,X$@$*$$$$$&$$$+$5,4, $$&=$$$$$$$$$@@4151 $&%$$$%$$#$&$$$414, $$$$$@=$$@$$$$$4,41 $$$$$&@&%$$$&%$4; ",
" 81 $&%@$$$$%&$$$&$4,4,X$$%$$$$%$$$$$$$4,4, $$$%$$%$%$@$@&%5,4, $$$$$$$$$&$$$$$4,51 $$&$$$#$$$@$$&$314, @$$$$$$$%$$*$$$415, $$$$%$$#$@$%$$$4,4, @$$$&%$$$$$@&&$4,4, $#$$%$&$$$@$$$%4; ",
" 8, &&%@$$$$$&$$$&$4,41 $$@$$%%%%$$$$$$4,41 $%$%$$$#$&@$$$&5,4, $$%+$&$$$$$$@#$4,41 $$#$$$$$$$$@$$$4,4, @+$$$@=$$$$%%$$5,4, $$%$$$$$%$$$=$$5,32 $*#$$&&$$$$$$$$414, *$+$$$$$$&$$$$$5; ",
" 8, $%$&$$$$$$$$$$#4,4, $$$$$$$$$%&$$&$5,4, %$$$$$$$&$$$&$$414, $$&$$@$$$$$+&$%3,41 $$@$&&$$$$@$$$&514, $$&$$$$@$$$$$$@4,7, $$$$$@$$$$$$&$%414, $$$$$$+$@$$$$$$4,4, $@@$$$&$$$$$$$$4; ",
" 8, $$$$$#$@$$$%$+$414, $$$$*@@$$$$#$@$4,4, $$$$$&$$$$$*$$$4,4, &$%$%$%&%$@$$$=4:4, $$$$$%$$$$$$$$$415, $$%%$$$$$$$@$%$413, $$$$$$&$$$%&$$&4,31 @$$$*$$&$@$$@&$4,5,X&$$&@$@$$$$$&$$3; ",
" 81 $%@$$$$$&$$$$&$414,X$$@$$$$$@$&$$$=4,4,X$$$$$#$$$$$$$$$4,4, $$$$@$$$$$$%$$$4,51 #$$$$%$$$$=$$&$4,5,X$$&$$$&$$$#$$+=414, $$$@$$$$$$$$$$$4,4, $$#$$$$$$$$$$&$4,4, $$%$%@$$$%&$$$$4; ",
" 8, #$$%&$$$$$@$$$$7,3, $$$$$$#$$$&$@$$4,7, @$$$$$%&$$$$$$$4,4, $%=$@%$$$$$$@$$414: $$$@$$$$$&$$$$%514, @$$$$$$&$$%$$$&4,4, $$==@$$&$$$$$$$4,4, $$$$$#@$%+$$$$%4,4> $$$$#$$$$$$$$@$4; ",
" 8, %$$$@$&$$$$&$$&3,4,o$$#$$&$%$@$&$$$4,42 @$$$$@@#$$$@$$$4,5,X#$$@$$$%$$$&$$$5,51 $$$$$$&$$$%$$$$4,5, &%O$@$$$$@&#$%&525, $@$$$&$$$$$$$$$4,3, %@$$$$*$$$+$$$$4,4, @$$$$$$@$$$$$$$4; ",
" 81 $$@%$$$$%$$$@$$4,4, $$$$$%$$$$$&#$$4,4, $$@%$$$&$$$$$@$4,4, $$$$$$&$$$$$$$$4,4, $$$%$#$&$$$%&$%4141X$&$$$$$$$$$$@$$4,4, @$$$&$$$$$$#$$$414, $$&$$$$%$$$%$$$4,41 $%$$$$&$$$$&$$$4; ",
" 81 $%%%%$$$$@$$&@$4,3, $%$$$$O$$%$$%+$3,4, $$$$%@$$$$$$$$$4,41 $%%%$$%#$$$#$$$4,4, $$$@$@$$$$$$$$$4,4> $$$$$$$$$$$%*$$4,4, $$$$$$$@$%$$$$$414, $&$$$$&%$$$$$%$4,41 $%&%$$$$$$$$$@&4; ",
" 8, &%#%@$$$$$%$@$$4,3, $$$%$@$$$$$$$$$4,5, $$$$$$@$$$$$$$%4,4, $$%@&$$$$%$*#$$4,4, &$$%$$$$$$$$$$$4,5, $$$$@$$$$*$$$&%5,4, $$&@$$$@$$$$$$$5,4, %$$$@$$$$$$$$%$4,4, $#$@$$$$$$$%$$$4; ",
" 8, $&$%$$$$%$$$$$$4151 $$$%$$@&$@$$$$$4,73 $$@&$$$$$$#$@$$514, $$$$&%$$$$$$%$$4,3, $$$$$%$&$$@$$&$4,5, $$$%$$$@*%$$$$$3,5, @$=$$$$$$$$#&$$4,4, $$$#$%$$$$%$$$$415, $$$$$$$&$$$$&@$4; ",
" 8, $$$$$$$$$*$$$$$4,4, $$$$@$$$%$$$$$$5,51 $$$&$$$@$$$&%#$5,4, $$$$$$$=$$$#$$$413,X=$$$$$$##$@$$%$5,4, $$$$$$$$$$$$$$%4,4, %#&$$$&$$%$$$$$4,4, @$$$$$$$$$$*$$&4,4, $$$@$$$@&$$$#&$4; ",
" 8, $$@$$@$$$$+$$$$5,4, $$$$$$$$$$#&$$$4,4, =&$$$$$$@$$$$$$5,4, $@&@%$&$$@$@=$$313, #$$$$&$%$$@$&$$4,3, $@$$%$$$%$$$%&$415, $$$&@$$@$$$$$*%4,4, $$$$$$$$$$$$$$@4,41 $$&$@&$@$$%$%$$4; ",
" 8344444444475443754,424445444444454455414345445454444435543,3243444444444555544,4344454444445444444,4344444454433554554,3344444448443444444,4484444444443454544,4344444444443344454; ",
" 81,,1,,11,,,1,,1,,,,211,,,1,1,,,,,,,,>,,3,,,,111,,,1,,,,,,,,3,,,,,11,,,1,,,11>,,3,1,,,1,,,,,1,,,,1,,3,11,1,,,,,1>,,1,1,11,1,>1,,,,,,1,,,,,,,2,,,,,,,,,1,,>,,,1,,2,,,1,,,,,,,,,,,,,1; ",
"                                                                                                                                                                                      "
};
