/* XPM */
static char *key_icon[] = {
/* columns rows colors chars-per-pixel */
"16 16 10 1 ",
"  c None",
". c #082520",
"X c #281E0B",
"o c #493615",
"O c #27B29A",
"+ c #0E3F36",
"@ c #2BC7AC",
"# c #896727",
"$ c #684E1E",
"% c #33EBCB",
/* pixels */
"                ",
"                ",
"      +++++     ",
"     +%@OO@+o$  ",
"      +...OO#X  ",
"          o@O.  ",
"         o$XO@. ",
"        o#X .O. ",
"       o$X  .O. ",
"      o#X   .@. ",
"     o$X    .%. ",
"    o#X      .  ",
"   o$X          ",
"  o#X           ",
"  XX            ",
"                "
};
