/* XPM */
static char *offhand[] = {
/* columns rows colors chars-per-pixel */
"22 22 20 1 ",
"  c black",
". c #0B0B04",
"X c #161804",
"o c #1B1D04",
"O c #1D2004",
"+ c #272505",
"@ c #2A2607",
"# c #2C2808",
"$ c #302C0E",
"% c #565656",
"& c #5D5D5D",
"* c gray40",
"= c #6D6D6D",
"- c gray44",
"; c #7E7E7E",
": c #848484",
"> c #898989",
", c #939393",
"< c gray67",
"1 c #CECECE",
/* pixels */
"                      ",
" 11<<,,<,,,,,,,,,,,,,,",
" <&&&*&&*&&&&&&**&&-&;",
" <*        . .     -*;",
" ,* o++o++#+++X++++;%;",
" <& ++++++++++@++++;&;",
" ,* +#@o++++@#+++#+;&;",
" ,& ##@o+++++#+++#+;&;",
" ,& +@+#++++++++++O;&;",
" ,& +++++O+o+++@+X+;*;",
" ,* +@o+++++#++++#+;*;",
" ,& O++@#+++++o++++>&-",
" ,& @+++o+#++++#++#-&;",
" ,* ++o@++++@+++o++;&;",
" ,* +++@@++++o++#o+;&-",
" ,& #+O+o+++++@+o++;&-",
" ,& +#+@++++@++++++;*:",
" ,& +++++++++$+++++;&;",
" ,& ++o++o++++X++++:&;",
" ,-;;;;;;;;;>:;;->:;&;",
" ,*&&*&&**&&&*&&*&&&&=",
"                      "
};
