/* XPM */
static char *selector[] = {
/* columns rows colors chars-per-pixel */
"24 24 70 1 ",
"  c None",
". c black",
"X c #040404",
"o c #546251",
"O c #556352",
"+ c #566453",
"@ c #586655",
"# c #596756",
"$ c #5A6857",
"% c #5B6958",
"& c #5C6A59",
"* c #5D6B5A",
"= c #5E6C5B",
"- c #5F6D5C",
"; c #606E5D",
": c #616F5E",
"> c #62705F",
", c #647261",
"< c #657362",
"1 c #667463",
"2 c #677564",
"3 c #687665",
"4 c #6D7B6A",
"5 c #6E7C6B",
"6 c #90A18C",
"7 c #95A691",
"8 c #99AA95",
"9 c #9AAB96",
"0 c #9BAC97",
"q c #9CAD98",
"w c #9DAE99",
"e c #9EAF9A",
"r c #9FB09B",
"t c #A0B19C",
"y c #A1B29D",
"u c #A2B39E",
"i c #A3B49F",
"p c #A4B5A0",
"a c #A5B6A1",
"s c #A8B9A4",
"d c #A9BAA5",
"f c #AABBA6",
"g c #ABBCA7",
"h c #ACBDA8",
"j c #AEBFAA",
"k c #CADDC5",
"l c #CDE0C8",
"z c #CEE1C9",
"x c #CFE2CA",
"c c #D0E3CB",
"v c #D1E4CC",
"b c #D2E5CD",
"n c #D3E6CE",
"m c #D4E7CF",
"M c #D5E8D0",
"N c #D6E9D1",
"B c #D7EAD2",
"V c #D8EBD3",
"C c #DAEDD5",
"Z c #DCEFD7",
"A c #DDF0D8",
"S c #DEF1D9",
"D c #E2F5DD",
"F c #F6F6F6",
"G c #F7F9F7",
"H c #F8FAF8",
"J c gray99",
"K c #FDFDFD",
"L c #FCFEFC",
"P c white",
/* pixels */
"........................",
".PPFGAPMMzmMCMMCMzMMMMy.",
".Pyyy0yyyyh0y6y0y0yydy-.",
".Gy:-#-#---->-:-----dp-.",
".Py:                my:.",
".Mh-                Dy,.",
".My-                My,.",
".My-                My-.",
".ky-                My-.",
".My-                Md-.",
".Md-                CyO.",
".My-                Ay3.",
".Cy-                My$.",
".MpO                My-.",
".Cy3                My-.",
".My5                Me#.",
".Ce>                My:.",
".kyO                zp,.",
".m7-                My-.",
".My-                PrO.",
".MymmMMCzmMmMMMMMMCPGy:.",
".Myyd0yyy0dyeyyyeyeyry-.",
".y--,,#---,,-----,-5-O:.",
"........................"
};
