/* XPM */
static char *torch[] = {
/* columns rows colors chars-per-pixel */
"16 16 13 1 ",
"  c None",
". c #372A17",
"X c #3B2E1B",
"o c #3D301D",
"O c #423522",
"+ c #55452E",
"@ c #6D5736",
"# c #957546",
"$ c #9F7F50",
"% c #FF8F00",
"& c #FFD800",
"* c #FFFF97",
"= c white",
/* pixels */
"                ",
"                ",
"                ",
"                ",
"                ",
"                ",
"       &%       ",
"       *=       ",
"       $@       ",
"       #+       ",
"       $O       ",
"       $+       ",
"       #+       ",
"       @o       ",
"       $X       ",
"       @.       "
};
