/* XPM */
static char *result[] = {
/* columns rows colors chars-per-pixel */
"64 64 23 1 ",
"  c #1B2B10",
". c #102C31",
"X c #1E4835",
"o c #2D1740",
"O c #44295B",
"+ c #4E3563",
"@ c #316364",
"# c #579143",
"$ c #71AC49",
"% c #659B7D",
"& c #88C35A",
"* c #B5E45A",
"= c #97D16B",
"- c #4E8386",
"; c #AEA383",
": c #C9C097",
"> c #D1CE9A",
", c #D6D99F",
"< c #DFE4A8",
"1 c #EAF4B2",
"2 c #CBFCDD",
"3 c #EEF9C7",
"4 c #ECF3DF",
/* pixels */
":1144444334431>;:1144444334431>;:1144444334431>;:1144444334431>;",
"<13333444333331:<13333444333331:<13333444333331:<13333444333331:",
"<<131331331311<><<131331331311<><<131331331311<><<131331331311<>",
"<1<133331331<,<><1<133331331<,<><1<133331331<,<><1<133331331<,<>",
",<<<,,<<,,,<1<,:,<<<,,<<,,,<1<,:,<<<,,<<,,,<1<,:,<<<,,<<,,,<1<,:",
",,<,<<<<<,<<<,,:,,<,<<<<<,<<<,,:,,<,<<<<<,<<<,,:,,<,<<<<<,<<<,,:",
":,,,,,,,,,,,,,:;:,,,,,,,,,,,,,:;:,,,,,,,,,,,,,:;:,,,,,,,,,,,,,:;",
";:>>::;;;;::>:;;;:>>::;;;;::>:;;;:>>::;;;;::>:;;;:>>::;;;;::>:;;",
"3333311:;>1134443333311:;>1134443333311:;>1134443333311:;>113444",
"1333331<:13433111333331<:13433111333331<:13433111333331<:1343311",
"43131311:333133443131311:333133443131311:333133443131311:3331334",
"113331<<>1<<<131113331<<>1<<<131113331<<>1<<<131113331<<>1<<<131",
",<,,<<1<><1<,,<,,<,,<<1<><1<,,<,,<,,<<1<><1<,,<,,<,,<<1<><1<,,<,",
"<<<<<1<<:,<,<<<<<<<<<1<<:,<,<<<<<<<<<1<<:,<,<<<<<<<<<1<<:,<,<<<<",
",<,,,,,:;:,,,,,,,<,,,,,:;:,,,,,,,<,,,,,:;:,,,,,,,<,,,,,:;:,,,,,,",
";::>>::;;;::>:;;;::>>::;;;::>:;;;::>>::;;;::>:;;;::>>::;;;::>:;;",
":1144444334431>;:1144444334431>;:1144444334431>;:1144444334431>;",
"<13333444333331:<13333444333331:<13333444333331:<13333444333331:",
"<<131331331311<><<131331331311<><<131331331311<><<131331331311<>",
"<1<133331331<,<><1<133331331<,<><1<133331331<,<><1<133331331<,<>",
",<<<,,<<,,,<1<,:,<<<,,<<,,,<1<,:,<<<,,<<,,,<1<,:,<<<,,<<,,,<1<,:",
",,<,<<<<<,<<<,,:,,<,<<<<<,<<<,,:,,<,<<<<<,<<<,,:,,<,<<<<<,<<<,,:",
":,,,,,,,,,,,,,:;:,,,,,,,,,,,,,:;:,,,,,,,,,,,,,:;:,,,,,,,,,,,,,:;",
";:>>::;;;;::>:;;;:>>::;;;;::>:;;;:>>::;;;;::>:;;;:>>::;;;;::>:;;",
"3333311:;>1134443333311:;>1134443333311:;>1134443333311:;>113444",
"1333331<:13433111333331<:13433111333331<:13433111333331<:1343311",
"43131311:333133443131311:333133443131311:333133443131311:3331334",
"113331<<>1<<<131113331<<>1<<<131113331<<>1<<<131113331<<>1<<<131",
",<,,<<1<><1<,,<,,<,,<<1<><1<,,<,,<,,<<1<><1<,,<,,<,,<<1<><1<,,<,",
"<<<<<1<<:,<,<<<<<<<<<1<<:,<,<<<<<<<<<1<<:,<,<<<<<<<<<1<<:,<,<<<<",
",<,,,,,:;:,,,,,,,<,,,,,:;:,,,,,,,<,,,,,:;:,,,,,,,<,,,,,:;:,,,,,,",
";::>>::;;;::>:;;;::>>::;;;::>:;;;::>>::;;;::>:;;;::>>::;;;::>:;;",
":1144444334431>;:1144444334431>;:1144444334431>;:1144444334431>;",
"<13333444333331:<13333444333331:<13333444333331:<13333444333331:",
"<<131331331311<><<131331331311<><<131@XX331311<><<131331331311<>",
"<1<133331331<,<><1<133331331<,<><1<@@---XX31<,<><1<133331331<,<>",
",<<<,,<<,,,<1<,:,<<<,,<<,,,<1<,:,<o-%%%%%@o<1<,:,<<<,,<<,,,<1<,:",
",,<,<<<<<,<<<,,:,,<,<<<<<,<<<,,:,oO%2*&$%%Oo<,,:,,<,<<<<<,<<<,,:",
":,,,,,,,,,,,,,:;:,,,,,,,,,,,,,:;:o%2*=X#$%%o,,:;:,,,,,,,,,,,,,:;",
";:>>::;;;;::>:;;;:>>::;;;;::>:;;oO%*=X X#$%+o:;;;:>>::;;;;::>:;;",
"3333311:;>1134443333311:;>113444o+$$&X X#$%+o4443333311:;>113444",
"1333331<:13433111333331<:1343311oO%$#X X&$$Oo3111333331<:1343311",
"43131311:333133443131311:33313344o-%$&X=$-%o133443131311:3331334",
"113331<<>1<<<131113331<<>1<<<1311oO-%$#$-$Oo<131113331<<>1<<<131",
",<,,<<1<><1<,,<,,<,,<<1<><1<,,<,,<o@----%@o<,,<,,<,,<<1<><1<,,<,",
"<<<<<1<<:,<,<<<<<<<<<1<<:,<,<<<<<<<..@@@..<,<<<<<<<<<1<<:,<,<<<<",
",<,,,,,:;:,,,,,,,<,,,,,:;:,,,,,,,<,,,...;:,,,,,,,<,,,,,:;:,,,,,,",
";::>>::;;;::>:;;;::>>::;;;::>:;;;::>>::;;;::>:;;;::>>::;;;::>:;;",
":1144444334431>;:1144444334431>;:1144444334431>;:1144444334431>;",
"<13333444333331:<13333444333331:<13333444333331:<13333444333331:",
"<<131331331311<><<131331331311<><<131331331311<><<131331331311<>",
"<1<133331331<,<><1<133331331<,<><1<133331331<,<><1<133331331<,<>",
",<<<,,<<,,,<1<,:,<<<,,<<,,,<1<,:,<<<,,<<,,,<1<,:,<<<,,<<,,,<1<,:",
",,<,<<<<<,<<<,,:,,<,<<<<<,<<<,,:,,<,<<<<<,<<<,,:,,<,<<<<<,<<<,,:",
":,,,,,,,,,,,,,:;:,,,,,,,,,,,,,:;:,,,,,,,,,,,,,:;:,,,,,,,,,,,,,:;",
";:>>::;;;;::>:;;;:>>::;;;;::>:;;;:>>::;;;;::>:;;;:>>::;;;;::>:;;",
"3333311:;>1134443333311:;>1134443333311:;>1134443333311:;>113444",
"1333331<:13433111333331<:13433111333331<:13433111333331<:1343311",
"43131311:333133443131311:333133443131311:333133443131311:3331334",
"113331<<>1<<<131113331<<>1<<<131113331<<>1<<<131113331<<>1<<<131",
",<,,<<1<><1<,,<,,<,,<<1<><1<,,<,,<,,<<1<><1<,,<,,<,,<<1<><1<,,<,",
"<<<<<1<<:,<,<<<<<<<<<1<<:,<,<<<<<<<<<1<<:,<,<<<<<<<<<1<<:,<,<<<<",
",<,,,,,:;:,,,,,,,<,,,,,:;:,,,,,,,<,,,,,:;:,,,,,,,<,,,,,:;:,,,,,,",
";::>>::;;;::>:;;;::>>::;;;::>:;;;::>>::;;;::>:;;;::>>::;;;::>:;;"
};
