/* XPM */
static char *result[] = {
/* columns rows colors chars-per-pixel */
"64 64 27 1 ",
"  c #1B2B10",
". c #200E30",
"X c #102C31",
"o c #1E4835",
"O c #2D1740",
"+ c #38204D",
"@ c #44295B",
"# c #4E3563",
"$ c #316364",
"% c #59426C",
"& c #579143",
"* c #71AC49",
"= c #52816A",
"- c #659B7D",
"; c #88C35A",
": c #B5E45A",
"> c #97D16B",
", c #4E8386",
"< c #AEA383",
"1 c #C9C097",
"2 c #D1CE9A",
"3 c #D6D99F",
"4 c #DFE4A8",
"5 c #EAF4B2",
"6 c #CBFCDD",
"7 c #EEF9C7",
"8 c #ECF3DF",
/* pixels */
"155888887788752<155888887788752<155888887788752<155888887788752<",
"4577778887777751457777888777775145777788877777514577778887777751",
"4457577577575542445757757757554244575775775755424457577577575542",
"4545777757754342454577775775434245457777577543424545777757754342",
"3444334433345431344433443334543134443344333454313444334433345431",
"3343444443444331334344444344433133434444434443313343444443444331",
"133333333333331<133333333333331<133333333333331<133333333333331<",
"<12211<<<<1121<<<12211<<<<1121<<<12211<<<<1121<<<12211<<<<1121<<",
"77777551<255788877777551<255788877777551<255788877777551<2557888",
"5777775415787755577777541578775557777754157877555777775415787755",
"8757575517775778875757551777577887575755177757788757575517775778",
"55777544254445755577754425444575557775442544457OoO77754425444575",
"343344542454334334334454245433433433445424543+O@=@O+445424543343",
"44444544134344444444454413434444444445441343+@#=-=#@+54413434444",
"34333331<133333334333331<133333334333331<13++@6:;*-@++31<1333333",
"<112211<<<1121<<<112211<<<1121<<<112211<<<1+@#:>o&*#@+1<<<1121<<",
"155888887788752<155888887788752<1558888877+@#&>o o&&%+O87788752<",
"457777888777775145777788877777514577778887O+%&;o o&&%@O887777751",
"445757757757554244575775775755424457577577O+%&&o o;&#@O577575542",
"4545777757754342454577775775434245457777577O@#*;o>*#@O7757754342",
"3444334433345431344433443334543134443344333O+@=*&*=#+.4433345431",
"33434444434443313343444443444331334344444344O@#$,$#@.44443444331",
"133333333333331<133333333333331<1333333333333..@$@..33333333331<",
"<12211<<<<1121<<<12211<<<<1121<<<12211<<<<1121<.X.2211<<<<1121<<",
"77777551<255788877777551<255788877777551<255788877777551<2557888",
"5777775415787755577777541578775557777754157877555777775415787755",
"8757575517775778875757551777577887575755177757788757575517775778",
"5577754425444575557775442544457555777544254445755577754425444575",
"3433445424543343343344542454334334334454245433433433445424543343",
"4444454413434444444445441343444444444544134344444444454413434444",
"34333331<133333334333331<133333334333331<133333334333331<1333333",
"<112211<<<1121<<<112211<<<1121<<<112211<<<1121<<<112211<<<1121<<",
"155888887788752<155888887788752<155888887788752<155888887788752<",
"4577778887777751457777888777775145777788877777514577778887777751",
"4457577577575542445757757757554244575775775755424457577577575542",
"4545777757754342454577775775434245457777577543424545777757754342",
"3444334433345431344433443334543134443344333454313444334433345431",
"3343444443444331334344444344433133434444434443313343444443444331",
"133333333333331<133333333333331<133333333333331<133333333333331<",
"<12211<<<<1121<<<12211<<<<1121<<<12211<<<<1121<<<12211<<<<1121<<",
"77777551<255788877777551<255788877777551<255788877777551<2557888",
"5777775415787755577777541578775557777754157877555777775415787755",
"8757575517775778875757551777577887575755177757788757575517775778",
"5577754425444575557775442544457555777544254445755577754425444575",
"3433445424543343343344542454334334334454245433433433445424543343",
"4444454413434444444445441343444444444544134344444444454413434444",
"34333331<133333334333331<133333334333331<133333334333331<1333333",
"<112211<<<1121<<<112211<<<1121<<<112211<<<1121<<<112211<<<1121<<",
"155888887788752<155888887788752<155888887788752<155888887788752<",
"4577778887777751457777888777775145777788877777514577778887777751",
"4457577577575542445757757757554244575775775755424457577577575542",
"4545777757754342454577775775434245457777577543424545777757754342",
"3444334433345431344433443334543134443344333454313444334433345431",
"3343444443444331334344444344433133434444434443313343444443444331",
"133333333333331<133333333333331<133333333333331<133333333333331<",
"<12211<<<<1121<<<12211<<<<1121<<<12211<<<<1121<<<12211<<<<1121<<",
"77777551<255788877777551<255788877777551<255788877777551<2557888",
"5777775415787755577777541578775557777754157877555777775415787755",
"8757575517775778875757551777577887575755177757788757575517775778",
"5577754425444575557775442544457555777544254445755577754425444575",
"3433445424543343343344542454334334334454245433433433445424543343",
"4444454413434444444445441343444444444544134344444444454413434444",
"34333331<133333334333331<133333334333331<133333334333331<1333333",
"<112211<<<1121<<<112211<<<1121<<<112211<<<1121<<<112211<<<1121<<"
};
