/* XPM */
static char *result[] = {
/* columns rows colors chars-per-pixel */
"64 64 13 1 ",
"  c #200E30",
". c #2D1740",
"X c #44295B",
"o c #4E3563",
"O c #59426C",
"+ c #AEA383",
"@ c #C9C097",
"# c #D1CE9A",
"$ c #D6D99F",
"% c #DFE4A8",
"& c #EAF4B2",
"* c #EEF9C7",
"= c #ECF3DF",
/* pixels */
"@&&=====**==*&#+@&&=====**==*&#+@&&=====**==*&#+@&&=====**==*&#+",
"%&****===*****&@%&****===*****&@%&****===*****&@%&****===*****&@",
"%%&*&**&**&*&&%#%%&*&**&**&*&&%#%%&*&**&**&*&&%#%%&*&**&**&*&&%#",
"%&%&****&**&%$%#%&%&****&**&%$%#%&%&****&**&%$%#%&%&****&**&%$%#",
"$%%%$$%%$$$%&%$@$%%%$$%%$$$%&%$@$%%%$$%%$$$%&%$@$%%%$$%%$$$%&%$@",
"$$%$%%%%%$%%%$$@$$%$%%%%%$%%%$$@$$%$%%%%%$%%%$$@$$%$%%%%%$%%%$$@",
"@$$$$$$$$$$$$$@+@$$$$$$$$$$$$$@+@$$$$$$$$$$$$$@+@$$$$$$$$$$$$$@+",
"+@##@@++++@@#@+++@##@@++++@@#@+++@##@@++++@@#@+++@##@@++++@@#@++",
"*****&&@+#&&*===*****&&@+#&&*===*****&&@+#&&*===*****&&@+#&&*===",
"&*****&%@&*=**&&&*****&%@&*=**&&&*****&%@&*=**&&&*****&%@&*=**&&",
"=*&*&*&&@***&**==*&*&*&&@***&**==*&*&*&&@***&**==*&*&*&&@***&**=",
"&&***&%%#&%%%&*&&&***&%%#&%%%&*&&&***&%%#&%%%&*. .***&%%#&%%%&*&",
"$%$$%%&%#%&%$$%$$%$$%%&%#%&%$$%$$%$$%%&%#%&%$$.X X.$%%&%#%&%$$%$",
"%%%%%&%%@$%$%%%%%%%%%&%%@$%$%%%%%%%%%&%%@$%$%.Xo oX.%&%%@$%$%%%%",
"$%$$$$$@+@$$$$$$$%$$$$$@+@$$$$$$$%$$$$$@+@$$.XXo oXX.$$@+@$$$$$$",
"+@@##@@+++@@#@+++@@##@@+++@@#@+++@@##@@+++@@.oXO.oXo.@@+++@@#@++",
"@&&=====**==*&#+@&&=====**==*&#+@&&=====**=.XoOO.OXoo.==**==*&#+",
"%&****===*****&@%&****===*****&@%&****===**.XOOo.OOoo.===*****&@",
"%%&*&**&**&*&&%#%%&*&**&**&*&&%#%%&*&**&**&.XOXo.oOXo.*&**&*&&%#",
"%&%&****&**&%$%#%&%&****&**&%$%#%&%&****&**&.oXo.oOX.***&**&%$%#",
"$%%%$$%%$$$%&%$@$%%%$$%%$$$%&%$@$%%%$$%%$$$%.XXo ooX.$%%$$$%&%$@",
"$$%$%%%%%$%%%$$@$$%$%%%%%$%%%$$@$$%$%%%%%$%%%.Xo oX.%%%%%$%%%$$@",
"@$$$$$$$$$$$$$@+@$$$$$$$$$$$$$@+@$$$$$$$$$$$$$.X X.$$$$$$$$$$$@+",
"+@##@@++++@@#@+++@##@@++++@@#@+++@##@@++++@@#@+   ##@@++++@@#@++",
"*****&&@+#&&*===*****&&@+#&&*===*****&&@+#&&*===*****&&@+#&&*===",
"&*****&%@&*=**&&&*****&%@&*=**&&&*****&%@&*=**&&&*****&%@&*=**&&",
"=*&*&*&&@***&**==*&*&*&&@***&**==*&*&*&&@***&**==*&*&*&&@***&**=",
"&&***&%%#&%%%&*&&&***&%%#&%%%&*&&&***&%%#&%%%&*&&&***&%%#&%%%&*&",
"$%$$%%&%#%&%$$%$$%$$%%&%#%&%$$%$$%$$%%&%#%&%$$%$$%$$%%&%#%&%$$%$",
"%%%%%&%%@$%$%%%%%%%%%&%%@$%$%%%%%%%%%&%%@$%$%%%%%%%%%&%%@$%$%%%%",
"$%$$$$$@+@$$$$$$$%$$$$$@+@$$$$$$$%$$$$$@+@$$$$$$$%$$$$$@+@$$$$$$",
"+@@##@@+++@@#@+++@@##@@+++@@#@+++@@##@@+++@@#@+++@@##@@+++@@#@++",
"@&&=====**==*&#+@&&=====**==*&#+@&&=====**==*&#+@&&=====**==*&#+",
"%&****===*****&@%&****===*****&@%&****===*****&@%&****===*****&@",
"%%&*&**&**&*&&%#%%&*&**&**&*&&%#%%&*&**&**&*&&%#%%&*&**&**&*&&%#",
"%&%&****&**&%$%#%&%&****&**&%$%#%&%&****&**&%$%#%&%&****&**&%$%#",
"$%%%$$%%$$$%&%$@$%%%$$%%$$$%&%$@$%%%$$%%$$$%&%$@$%%%$$%%$$$%&%$@",
"$$%$%%%%%$%%%$$@$$%$%%%%%$%%%$$@$$%$%%%%%$%%%$$@$$%$%%%%%$%%%$$@",
"@$$$$$$$$$$$$$@+@$$$$$$$$$$$$$@+@$$$$$$$$$$$$$@+@$$$$$$$$$$$$$@+",
"+@##@@++++@@#@+++@##@@++++@@#@+++@##@@++++@@#@+++@##@@++++@@#@++",
"*****&&@+#&&*===*****&&@+#&&*===*****&&@+#&&*===*****&&@+#&&*===",
"&*****&%@&*=**&&&*****&%@&*=**&&&*****&%@&*=**&&&*****&%@&*=**&&",
"=*&*&*&&@***&**==*&*&*&&@***&**==*&*&*&&@***&**==*&*&*&&@***&**=",
"&&***&%%#&%%%&*&&&***&%%#&%%%&*&&&***&%%#&%%%&*&&&***&%%#&%%%&*&",
"$%$$%%&%#%&%$$%$$%$$%%&%#%&%$$%$$%$$%%&%#%&%$$%$$%$$%%&%#%&%$$%$",
"%%%%%&%%@$%$%%%%%%%%%&%%@$%$%%%%%%%%%&%%@$%$%%%%%%%%%&%%@$%$%%%%",
"$%$$$$$@+@$$$$$$$%$$$$$@+@$$$$$$$%$$$$$@+@$$$$$$$%$$$$$@+@$$$$$$",
"+@@##@@+++@@#@+++@@##@@+++@@#@+++@@##@@+++@@#@+++@@##@@+++@@#@++",
"@&&=====**==*&#+@&&=====**==*&#+@&&=====**==*&#+@&&=====**==*&#+",
"%&****===*****&@%&****===*****&@%&****===*****&@%&****===*****&@",
"%%&*&**&**&*&&%#%%&*&**&**&*&&%#%%&*&**&**&*&&%#%%&*&**&**&*&&%#",
"%&%&****&**&%$%#%&%&****&**&%$%#%&%&****&**&%$%#%&%&****&**&%$%#",
"$%%%$$%%$$$%&%$@$%%%$$%%$$$%&%$@$%%%$$%%$$$%&%$@$%%%$$%%$$$%&%$@",
"$$%$%%%%%$%%%$$@$$%$%%%%%$%%%$$@$$%$%%%%%$%%%$$@$$%$%%%%%$%%%$$@",
"@$$$$$$$$$$$$$@+@$$$$$$$$$$$$$@+@$$$$$$$$$$$$$@+@$$$$$$$$$$$$$@+",
"+@##@@++++@@#@+++@##@@++++@@#@+++@##@@++++@@#@+++@##@@++++@@#@++",
"*****&&@+#&&*===*****&&@+#&&*===*****&&@+#&&*===*****&&@+#&&*===",
"&*****&%@&*=**&&&*****&%@&*=**&&&*****&%@&*=**&&&*****&%@&*=**&&",
"=*&*&*&&@***&**==*&*&*&&@***&**==*&*&*&&@***&**==*&*&*&&@***&**=",
"&&***&%%#&%%%&*&&&***&%%#&%%%&*&&&***&%%#&%%%&*&&&***&%%#&%%%&*&",
"$%$$%%&%#%&%$$%$$%$$%%&%#%&%$$%$$%$$%%&%#%&%$$%$$%$$%%&%#%&%$$%$",
"%%%%%&%%@$%$%%%%%%%%%&%%@$%$%%%%%%%%%&%%@$%$%%%%%%%%%&%%@$%$%%%%",
"$%$$$$$@+@$$$$$$$%$$$$$@+@$$$$$$$%$$$$$@+@$$$$$$$%$$$$$@+@$$$$$$",
"+@@##@@+++@@#@+++@@##@@+++@@#@+++@@##@@+++@@#@+++@@##@@+++@@#@++"
};
