/* XPM */
static char *result[] = {
/* columns rows colors chars-per-pixel */
"64 64 11 1 ",
"  c #200E30",
". c #2D1740",
"X c #59426C",
"o c #AEA383",
"O c #C9C097",
"+ c #D1CE9A",
"@ c #D6D99F",
"# c #DFE4A8",
"$ c #EAF4B2",
"% c #EEF9C7",
"& c #ECF3DF",
/* pixels */
"O$$&&&&&%%&&%$+oO$$&&&&&%%&&%$+oO$$&&&&&%%&&%$+oO$$&&&&&%%&&%$+o",
"#$%%%%&&&%%%%%$O#$%%%%&&&%%%%%$O#$%%%%&&&%%%%%$O#$%%%%&&&%%%%%$O",
"##$%$%%$%%$%$$#+##$%$%%$%%$%$$#+##$%$%%$%%$%$$#+##$%$%%$%%$%$$#+",
"#$#$%%%%$%%$#@#+#$#$%%%%$%%$#@#+#$#$%%%%$%%$#@#+#$#$%%%%$%%$#@#+",
"@###@@##@@@#$#@O@###@@##@@@#$#@O@###@@##@@@#$#@O@###@@##@@@#$#@O",
"@@#@#####@###@@O@@#@#####@###@@O@@#@#####@###@@O@@#@#####@###@@O",
"O@@@@@@@@@@@@@OoO@@@@@@@@@@@@@OoO@@@@@@@@@@@@@OoO@@@@@@@@@@@@@Oo",
"oO++OOooooOO+OoooO++OOooooOO+OoooO++OOooooOO+OoooO++OOooooOO+Ooo",
"%%%%%$$Oo+$$%&&&%%%%%$$Oo+$$%&&&%%%%%$$Oo+$$%&&&%%%%%$$Oo+$$%&&&",
"$%%%%%$#O$%&%%$$$%%%%%$#O$%&%%$$$%%%%%$#O$%&%%$$$%%%%%$#O$%&%%$$",
"&%$%$%$$O%%%$%%&&%$%$%$$O%%%$%%&&%$%$%$$O%%%$%%&&%$%$%$$O%%%$%%&",
"$$%%%$##+$###$%$$$%%%$##+$###$%$$$%%%$##+$###$%$ $%%%$##+$###$%$",
"@#@@##$#+#$#@@#@@#@@##$#+#$#@@#@@#@@##$#+#$#@@#. .@@##$#+#$#@@#@",
"#####$##O@#@#########$##O@#@#########$##O@#@###. .###$##O@#@####",
"@#@@@@@OoO@@@@@@@#@@@@@OoO@@@@@@@#@@@@@OoO@@@@@. .@@@@@OoO@@@@@@",
"oOO++OOoooOO+OoooOO++OOoooOO+OoooOO++OOoooOO+Oo...O++OOoooOO+Ooo",
"O$$&&&&&%%&&%$+oO$$&&&&&%%&&%$+oO$$&&&&&%%&&%$.X.X.&&&&&%%&&%$+o",
"#$%%%%&&&%%%%%$O#$%%%%&&&%%%%%$O#$%%%%&&&%%%%%.X.X.%%%&&&%%%%%$O",
"##$%$%%$%%$%$$#+##$%$%%$%%$%$$#+##$%$%%$%%$%$$.X.X.%$%%$%%$%$$#+",
"#$#$%%%%$%%$#@#+#$#$%%%%$%%$#@#+#$#$%%%%$%%$#@#...#$%%%%$%%$#@#+",
"@###@@##@@@#$#@O@###@@##@@@#$#@O@###@@##@@@#$#@. .##@@##@@@#$#@O",
"@@#@#####@###@@O@@#@#####@###@@O@@#@#####@###@@. .#@#####@###@@O",
"O@@@@@@@@@@@@@OoO@@@@@@@@@@@@@OoO@@@@@@@@@@@@@O. .@@@@@@@@@@@@Oo",
"oO++OOooooOO+OoooO++OOooooOO+OoooO++OOooooOO+Ooo O++OOooooOO+Ooo",
"%%%%%$$Oo+$$%&&&%%%%%$$Oo+$$%&&&%%%%%$$Oo+$$%&&&%%%%%$$Oo+$$%&&&",
"$%%%%%$#O$%&%%$$$%%%%%$#O$%&%%$$$%%%%%$#O$%&%%$$$%%%%%$#O$%&%%$$",
"&%$%$%$$O%%%$%%&&%$%$%$$O%%%$%%&&%$%$%$$O%%%$%%&&%$%$%$$O%%%$%%&",
"$$%%%$##+$###$%$$$%%%$##+$###$%$$$%%%$##+$###$%$$$%%%$##+$###$%$",
"@#@@##$#+#$#@@#@@#@@##$#+#$#@@#@@#@@##$#+#$#@@#@@#@@##$#+#$#@@#@",
"#####$##O@#@#########$##O@#@#########$##O@#@#########$##O@#@####",
"@#@@@@@OoO@@@@@@@#@@@@@OoO@@@@@@@#@@@@@OoO@@@@@@@#@@@@@OoO@@@@@@",
"oOO++OOoooOO+OoooOO++OOoooOO+OoooOO++OOoooOO+OoooOO++OOoooOO+Ooo",
"O$$&&&&&%%&&%$+oO$$&&&&&%%&&%$+oO$$&&&&&%%&&%$+oO$$&&&&&%%&&%$+o",
"#$%%%%&&&%%%%%$O#$%%%%&&&%%%%%$O#$%%%%&&&%%%%%$O#$%%%%&&&%%%%%$O",
"##$%$%%$%%$%$$#+##$%$%%$%%$%$$#+##$%$%%$%%$%$$#+##$%$%%$%%$%$$#+",
"#$#$%%%%$%%$#@#+#$#$%%%%$%%$#@#+#$#$%%%%$%%$#@#+#$#$%%%%$%%$#@#+",
"@###@@##@@@#$#@O@###@@##@@@#$#@O@###@@##@@@#$#@O@###@@##@@@#$#@O",
"@@#@#####@###@@O@@#@#####@###@@O@@#@#####@###@@O@@#@#####@###@@O",
"O@@@@@@@@@@@@@OoO@@@@@@@@@@@@@OoO@@@@@@@@@@@@@OoO@@@@@@@@@@@@@Oo",
"oO++OOooooOO+OoooO++OOooooOO+OoooO++OOooooOO+OoooO++OOooooOO+Ooo",
"%%%%%$$Oo+$$%&&&%%%%%$$Oo+$$%&&&%%%%%$$Oo+$$%&&&%%%%%$$Oo+$$%&&&",
"$%%%%%$#O$%&%%$$$%%%%%$#O$%&%%$$$%%%%%$#O$%&%%$$$%%%%%$#O$%&%%$$",
"&%$%$%$$O%%%$%%&&%$%$%$$O%%%$%%&&%$%$%$$O%%%$%%&&%$%$%$$O%%%$%%&",
"$$%%%$##+$###$%$$$%%%$##+$###$%$$$%%%$##+$###$%$$$%%%$##+$###$%$",
"@#@@##$#+#$#@@#@@#@@##$#+#$#@@#@@#@@##$#+#$#@@#@@#@@##$#+#$#@@#@",
"#####$##O@#@#########$##O@#@#########$##O@#@#########$##O@#@####",
"@#@@@@@OoO@@@@@@@#@@@@@OoO@@@@@@@#@@@@@OoO@@@@@@@#@@@@@OoO@@@@@@",
"oOO++OOoooOO+OoooOO++OOoooOO+OoooOO++OOoooOO+OoooOO++OOoooOO+Ooo",
"O$$&&&&&%%&&%$+oO$$&&&&&%%&&%$+oO$$&&&&&%%&&%$+oO$$&&&&&%%&&%$+o",
"#$%%%%&&&%%%%%$O#$%%%%&&&%%%%%$O#$%%%%&&&%%%%%$O#$%%%%&&&%%%%%$O",
"##$%$%%$%%$%$$#+##$%$%%$%%$%$$#+##$%$%%$%%$%$$#+##$%$%%$%%$%$$#+",
"#$#$%%%%$%%$#@#+#$#$%%%%$%%$#@#+#$#$%%%%$%%$#@#+#$#$%%%%$%%$#@#+",
"@###@@##@@@#$#@O@###@@##@@@#$#@O@###@@##@@@#$#@O@###@@##@@@#$#@O",
"@@#@#####@###@@O@@#@#####@###@@O@@#@#####@###@@O@@#@#####@###@@O",
"O@@@@@@@@@@@@@OoO@@@@@@@@@@@@@OoO@@@@@@@@@@@@@OoO@@@@@@@@@@@@@Oo",
"oO++OOooooOO+OoooO++OOooooOO+OoooO++OOooooOO+OoooO++OOooooOO+Ooo",
"%%%%%$$Oo+$$%&&&%%%%%$$Oo+$$%&&&%%%%%$$Oo+$$%&&&%%%%%$$Oo+$$%&&&",
"$%%%%%$#O$%&%%$$$%%%%%$#O$%&%%$$$%%%%%$#O$%&%%$$$%%%%%$#O$%&%%$$",
"&%$%$%$$O%%%$%%&&%$%$%$$O%%%$%%&&%$%$%$$O%%%$%%&&%$%$%$$O%%%$%%&",
"$$%%%$##+$###$%$$$%%%$##+$###$%$$$%%%$##+$###$%$$$%%%$##+$###$%$",
"@#@@##$#+#$#@@#@@#@@##$#+#$#@@#@@#@@##$#+#$#@@#@@#@@##$#+#$#@@#@",
"#####$##O@#@#########$##O@#@#########$##O@#@#########$##O@#@####",
"@#@@@@@OoO@@@@@@@#@@@@@OoO@@@@@@@#@@@@@OoO@@@@@@@#@@@@@OoO@@@@@@",
"oOO++OOoooOO+OoooOO++OOoooOO+OoooOO++OOoooOO+OoooOO++OOoooOO+Ooo"
};
