/* XPM */
static char *result[] = {
/* columns rows colors chars-per-pixel */
"64 64 24 1 ",
"  c #1B2B10",
". c #200E30",
"X c #1E4835",
"o c #2D1740",
"O c #38204D",
"+ c #44295B",
"@ c #4E3563",
"# c #316364",
"$ c #59426C",
"% c #579143",
"& c #71AC49",
"* c #659B7D",
"= c #88C35A",
"- c #B5E45A",
"; c #97D16B",
": c #4E8386",
"> c #AEA383",
", c #C9C097",
"< c #D1CE9A",
"1 c #D6D99F",
"2 c #DFE4A8",
"3 c #EAF4B2",
"4 c #EEF9C7",
"5 c #ECF3DF",
/* pixels */
",3355555445543<>,3355555445543<>,3355555445543<>,3355555445543<>",
"234444555444443,234444555444443,234444555444443,234444555444443,",
"223434434434332<223434434434332<223434434434332<223434434434332<",
"232344443443212<232344443443212<232344443443212<232344443443212<",
"122211221112321,122211221112321,122211221112321,122211221112321,",
"112122222122211,112122222122211,112122222122211,112122222122211,",
",1111111111111,>,1111111111111,>,1111111111111,>,1111111111111,>",
">,<<,,>>>>,,<,>>>,<<,,>>>>,,<,>>>,<<,,>>>>,,<,>>>,<<,,>>>>,,<,>>",
"4444433,><3345554444433,><3345554444433,><3345554444433,><334555",
"34444432,345443334444432,345443334444432,345443334444432,3454433",
"54343433,444344554343433,444344554343433,444344554343433,4443445",
"33444322<322234333444322<322234333444322<322234333444322<3222343",
"12112232<232112112112232<232112112112232<232112112112232<2321121",
"22222322,121222222222322,121222222222322,121222222222322,1212222",
"1211111,>,1111111211111,>,1111111211111,>,1111111211111,>,111111",
">,,<<,,>>>,,<,>>>,,<<,,>>>,,<,>>>,,<<,,>>>,,<,>>>,,<<,,>>>,,<,>>",
",3355555445543<>,3355555445543<>,3355555445543<>,3355555445543<>",
"234444555444443,234444555444443,234444555444443,234444555444443,",
"223434434434332<223434434434332<223434434434332<223434434434332<",
"232344443443212<232344443443212<232344443443212<232344443443212<",
"122211221112321,122211221112321,122211221112321,122211221112321,",
"112122222122211,112122222122211,112122222122211,112122222122211,",
",1111111111111,>,1111111111111,>,1111111111111,>,1111111111111,>",
">,<<,,>>>>,,<,>>>,<<,,>>>>,,<,>>>,<<,,>>>>,,<,>>>,<<,,>>>>,,<,>>",
"4444433,><3345554444433,><3345554444433,><3345554444433,><334555",
"34444432,345443334444432,345443334444432,345443334444432,3454433",
"54343433,444344554343433,444344554343433,444344554343433,4443445",
"33444322<322234333444322<322234333444322<322234333444322<3222343",
"12112232<232112112112232<232112112112232<232112112112232<2321121",
"22222322,121222222222322,121222222222322,121222222222322,1212222",
"1211111,>,1111111211111,>,1111111211111,>,1111111211111,>,111111",
">,,<<,,>>>,,<,>>>,,<<,,>>>,,<,>>>,,<<,,>>>,,<,>>>,,<<,,>>>,,<,>>",
",3355555445543<>,3355555445543<>,3355555445543<>,3355555445543<>",
"234444555444443,234444555444443,234444555444443,234444555444443,",
"223434434434332<223434434434332<223434434434332<223434434434332<",
"232344443443212<232344443443212<232344443443212<232344443443212<",
"122211221112321,122211221112321,122211221112321,122211221112321,",
"112122222122211,112122222122211,112122222122211,112122222122211,",
",1111111111111,>,1111111111111,>,1111111111111,>,1111111111111,>",
">,<<,,>>>>,,<,ooo,<<,,>>>>,,<,>>>,<<,,>>>>,,<,>>>,<<,,>>>>,,<,>>",
"4444433,><33oo+:+oo4433,><3345554444433,><3345554444433,><334555",
"34444432,34o++@*@++o4432,345443334444432,345443334444432,3454433",
"54343433,4oO+$-=&@+Oo433,444344554343433,444344554343433,4443445",
"33444322<3O+@$;X%$@+o322<322234333444322<322234333444322<3222343",
"12112232<oO+$;X X%$@Oo32<232112112112232<232112112112232<2321121",
"22222322,oO+$=X X%$@+o22,121222222222322,121222222222322,1212222",
"1211111,>oO+$%X X=@@+o1,>,1111111211111,>,1111111211111,>,111111",
">,,<<,,>>>o+@$=X;$@+o,,>>>,,<,>>>,,<<,,>>>,,<,>>>,,<<,,>>>,,<,>>",
",335555544oO+@&%&@+O.555445543<>,3355555445543<>,3355555445543<>",
"23444455544oO+@:@++.44555444443,234444555444443,234444555444443,",
"223434434434..+#+..434434434332<223434434434332<223434434434332<",
"23234444344321...32344443443212<232344443443212<232344443443212<",
"122211221112321,122211221112321,122211221112321,122211221112321,",
"112122222122211,112122222122211,112122222122211,112122222122211,",
",1111111111111,>,1111111111111,>,1111111111111,>,1111111111111,>",
">,<<,,>>>>,,<,>>>,<<,,>>>>,,<,>>>,<<,,>>>>,,<,>>>,<<,,>>>>,,<,>>",
"4444433,><3345554444433,><3345554444433,><3345554444433,><334555",
"34444432,345443334444432,345443334444432,345443334444432,3454433",
"54343433,444344554343433,444344554343433,444344554343433,4443445",
"33444322<322234333444322<322234333444322<322234333444322<3222343",
"12112232<232112112112232<232112112112232<232112112112232<2321121",
"22222322,121222222222322,121222222222322,121222222222322,1212222",
"1211111,>,1111111211111,>,1111111211111,>,1111111211111,>,111111",
">,,<<,,>>>,,<,>>>,,<<,,>>>,,<,>>>,,<<,,>>>,,<,>>>,,<<,,>>>,,<,>>"
};
