/* XPM */
static char *result[] = {
/* columns rows colors chars-per-pixel */
"64 64 25 1 ",
"  c #1B2B10",
". c #200E30",
"X c #102C31",
"o c #1E4835",
"O c #2D1740",
"+ c #38204D",
"@ c #44295B",
"# c #4E3563",
"$ c #316364",
"% c #579143",
"& c #71AC49",
"* c #659B7D",
"= c #88C35A",
"- c #B5E45A",
"; c #97D16B",
": c #4E8386",
"> c #AEA383",
", c #C9C097",
"< c #D1CE9A",
"1 c #D6D99F",
"2 c #DFE4A8",
"3 c #EAF4B2",
"4 c #CBFCDD",
"5 c #EEF9C7",
"6 c #ECF3DF",
/* pixels */
",3366666556653<>,3366666556653<>,3366666556653<>,3366666556653<>",
"235555666555553,235555666555553,235555666555553,235555666555553,",
"223535535535332<223535535535332<223535535535332<223535535535332<",
"232355553553212<232355553553212<232355553553212<232355553553212<",
"122211221112321,122211221112321,122211221112321,122211221112321,",
"112122222122211,112122222122211,112122222122211,112122222122211,",
",1111111111111,>,1111111111111,>,1111111111111,>,1111111111111,>",
">,<<,,>>>>,,<,>>>,<<,,>>>>,,<,>>>,<<,,>>>>,,<,>>>,<<,,>>>>,,<,>>",
"5555533,><3356665555533,><3356665555533,><3356665555533,><335666",
"35555532,356553335555532,356553335555532,356553335555532,3565533",
"65353533,555355665353533,555355665353533,555355665353533,5553556",
"33555322<322235333555322<322235333555322<322235333555322<3222353",
"12112232<232112112112232<232112112112232<232112112112232<2321121",
"22222322,121222222222322,121222222222322,121222222222322,1212222",
"1211111,>,1111111211111,>,1111111211111,>,1111111211111,>,111111",
">,,<<,,>>>,,<,>>>,,<<,,>>>,,<,>>>,,<<,,>>>,,<,>>>,,<<,,>>>,,<,>>",
",3366666556653<>,3366666556653<>,3366666556653<>,3366666556653<>",
"235555666555553,235555666555553,235555666555553,235555666555553,",
"223535535535332<223535535535332<223535535535332<223535535535332<",
"232355553553212<232355553553212<232355553553212<232355553553212<",
"122211221112321,122211221112321,122211221112321,122211221112321,",
"112122222122211,112122222122211,112122222122211,112122222122211,",
",1111111111111,>,1111111111111,>,1111111111111,>,1111111111111,>",
">,<<,,>>>>,,<,>>>,<<,,>>>>,,<,>>>,<<,,>>>>,,<,>>>,<<,,>>>>,,<,>>",
"5555533,><3356665555533,><3356665555533,><3356665555533,><335666",
"35555532,356553335555532,356553335555532,356553335555532,3565533",
"65353533,555355665353533,555355665353533,555355665353533,5553556",
"33555322<322235333555322<322235333555322<322235333555322<3222353",
"12112232<232112112112232<232112112112232<232112112112232<2321121",
"22222322,121222222222322,121222222222322,121222222222322,1212222",
"1211111,>,1111111211111,>,1111111211111,>,1111111211111,>,111111",
">,,<<,,>>>,,<,>>>,,<<,,>>>,,<,>>>,,<<,,>>>,,<,>>>,,<<,,>>>,,<,>>",
",3366666556653<>,3366666556653<>,3366666556653<>,3366666556653<>",
"235555666555553,235555666555553,235555666555553,235555666555553,",
"223535535535332<223535535535332<223535535535332<223535535535332<",
"232355553553212<232355553553212<232355553553212<232355553553212<",
"122211221112321,122211221112321,122211221112321,122211221112321,",
"112122222122211,112122222122211,112122222122211,112122222122211,",
",1111111111111,>,1111111111111,>,1111111111111,>,1111111111111,>",
">,<<,,>>>>,,<,$oo,<<,,>>>>,,<,>>>,<<,,>>>>,,<,>>>,<<,,>>>>,,<,>>",
"5555533,><33+$:::o+5533,><3356665555533,><3356665555533,><335666",
"35555532,35+#*****#+5532,356553335555532,356553335555532,3565533",
"65353533,5+#*4-=&**#O533,555355665353533,555355665353533,5553556",
"33555322<3+@4-;o%&*@O322<322235333555322<322235333555322<3222353",
"12112232<+@*-;o o%&*@+32<232112112112232<232112112112232<2321121",
"22222322,+@&&=o o%&*#O22,121222222222322,121222222222322,1212222",
"1211111,>O@*&%o o=&&@O1,>,1111111211111,>,1111111211111,>,111111",
">,,<<,,>>>O#*&=o;&:#.,,>>>,,<,>>>,,<<,,>>>,,<,>>>,,<<,,>>>,,<,>>",
",336666655O@:*&%&:&@.666556653<>,3366666556653<>,3366666556653<>",
"23555566655.@::::*@.55666555553,235555666555553,235555666555553,",
"223535535535OX$$$X+535535535332<223535535535332<223535535535332<",
"23235555355321XXX32355553553212<232355553553212<232355553553212<",
"122211221112321,122211221112321,122211221112321,122211221112321,",
"112122222122211,112122222122211,112122222122211,112122222122211,",
",1111111111111,>,1111111111111,>,1111111111111,>,1111111111111,>",
">,<<,,>>>>,,<,>>>,<<,,>>>>,,<,>>>,<<,,>>>>,,<,>>>,<<,,>>>>,,<,>>",
"5555533,><3356665555533,><3356665555533,><3356665555533,><335666",
"35555532,356553335555532,356553335555532,356553335555532,3565533",
"65353533,555355665353533,555355665353533,555355665353533,5553556",
"33555322<322235333555322<322235333555322<322235333555322<3222353",
"12112232<232112112112232<232112112112232<232112112112232<2321121",
"22222322,121222222222322,121222222222322,121222222222322,1212222",
"1211111,>,1111111211111,>,1111111211111,>,1111111211111,>,111111",
">,,<<,,>>>,,<,>>>,,<<,,>>>,,<,>>>,,<<,,>>>,,<,>>>,,<<,,>>>,,<,>>"
};
