/* XPM */
static char *result[] = {
/* columns rows colors chars-per-pixel */
"64 64 20 1 ",
"  c #1B2B10",
". c #102C31",
"X c #1E4835",
"o c #316364",
"O c #579143",
"+ c #71AC49",
"@ c #659B7D",
"# c #88C35A",
"$ c #B5E45A",
"% c #97D16B",
"& c #4E8386",
"* c #AEA383",
"= c #C9C097",
"- c #D1CE9A",
"; c #D6D99F",
": c #DFE4A8",
"> c #EAF4B2",
", c #CBFCDD",
"< c #EEF9C7",
"1 c #ECF3DF",
/* pixels */
"=>>11111<<11<>-*=>>11111<<11<>-*=>>11111<<11<>-*=>>11111<<11<>-*",
":><<<<111<<<<<>=:><<<<111<<<<<>=:><<<<111<<<<<>=:><<<<111<<<<<>=",
"::><><<><<><>>:-::><><<><<><>>:-::><><<><<><>>:-::><><<><<><>>:-",
":>:><<<<><<>:;:-:>:><<<<><<>:;:-:>:><<<<><<>:;:-:>:><<<<><<>:;:-",
";:::;;::;;;:>:;=;:::;;::;;;:>:;=;:::;;::;;;:>:;=;:::;;::;;;:>:;=",
";;:;:::::;:::;;=;;:;:::::;:::;;=;;:;:::::;:::;;=;;:;:::::;:::;;=",
"=;;;;;;;;;;;;;=*=;;;;;;;;;;;;;=*=;;;;;;;;;;;;;=*=;;;;;;;;;;;;;=*",
"*=--==****==-=***=--==****==-=***=--==****==-=***=--==****==-=**",
"<<<<<>>=*->><111<<<<<>>=*->><111<<<<<>>=*->><111<<<<<>>=*->><111",
"><<<<<>:=><1<<>>><<<<<>:=><1<<>>><<<<<>:=><1<<>>><<<<<>:=><1<<>>",
"1<><><>>=<<<><<11<><><>>=<<<><<11<><><>>=<<<><<11<><><>>=<<<><<1",
">><<<>::->:::><>>><<<>::->:::><>>><<<>::->:::><>>><<<>::->:::><>",
";:;;::>:-:>:;;:;;:;;::>:-:>:;;:;;:;;::>:-:>:;;:;;:;;::>:-:>:;;:;",
":::::>::=;:;:::::::::>::=;:;:::::::::>::=;:;:::::::::>::=;:;::::",
";:;;;;;=*=;;;;;;;:;;;;;=*=;;;;;;;:;;;;;=*=;;;;;;;:;;;;;=*=;;;;;;",
"*==--==***==-=***==--==***==-=***==--==***==-=***==--==***==-=**",
"=>>11111<<11<>-*=>>11111<<11<>-*=>>11111<<11<>-*=>>11111<<11<>-*",
":><<<<111<<<<<>=:><<<<111<<<<<>=:><<<<111<<<<<>=:><<<<111<<<<<>=",
"::><><<><<><>>:-::><><<><<><>>:-::><><<><<><>>:-::><><<><<><>>:-",
":>:><<<<><<>:;:-:>:><<<<><<>:;:-:>:><<<<><<>:;:-:>:><<<<><<>:;:-",
";:::;;::;;;:>:;=;:::;;::;;;:>:;=;:::;;::;;;:>:;=;:::;;::;;;:>:;=",
";;:;:::::;:::;;=;;:;:::::;:::;;=;;:;:::::;:::;;=;;:;:::::;:::;;=",
"=;;;;;;;;;;;;;=*=;;;;;;;;;;;;;=*=;;;;;;;;;;;;;=*=;;;;;;;;;;;;;=*",
"*=--==****==-=***=--==****==-=***=--==****==-=***=--==****==-=**",
"<<<<<>>=*->><111<<<<<>>=*->><111<<<<<>>=*->><111<<<<<>>=*->><111",
"><<<<<>:=><1<<>>><<<<<>:=><1<<>>><<<<<>:=><1<<>>><<<<<>:=><1<<>>",
"1<><><>>=<<<><<11<><><>>=<<<><<11<><><>>=<<<><<11<><><>>=<<<><<1",
">><<<>::->:::><>>><<<>::->:::><>>><<<>::->:::><>>><<<>::->:::><>",
";:;;::>:-:>:;;:;;:;;::>:-:>:;;:;;:;;::>:-:>:;;:;;:;;::>:-:>:;;:;",
":::::>::=;:;:::::::::>::=;:;:::::::::>::=;:;:::::::::>::=;:;::::",
";:;;;;;=*=;;;;;;;:;;;;;=*=;;;;;;;:;;;;;=*=;;;;;;;:;;;;;=*=;;;;;;",
"*==--==***==-=***==--==***==-=***==--==***==-=***==--==***==-=**",
"=>>11111<<11<>-*=>>11111<<11<>-*=>>11111<<11<>-*=>>11111<<11<>-*",
":><<<<111<<<<<>=:><<<<111<<<<<>=:><<<<111<<<<<>=:><<<<111<<<<<>=",
"::><><<><<><>>:-::><><<><<><>>:-::><><<><<><>>:-::><><<><<><>>:-",
":>:><<<<><<>:;:-:>:><<<<><<>:;:-:>:><<<<><<>:;:-:>:><<<<><<>:;:-",
";:::;;::;;;:>:;=;:::;;::;;;:>:;=;:::;;::;;;:>:;=;:::;;::;;;:>:;=",
";;:;:::::;:::;;=;;:;:::::;:::;;=;;:;:::::;:::;;=;;:;:::::;:::;;=",
"=;;;;;;;;;;;;;=*=;;;;;;;;;;;;;=*=;;;;;;;;;;;;;=*=;;;;;;;;;;;;;=*",
"*=--==****==-=oXX=--==****==-=***=--==****==-=***=--==****==-=**",
"<<<<<>>=*->>oo&&&XX<<>>=*->><111<<<<<>>=*->><111<<<<<>>=*->><111",
"><<<<<>:=><o&@@@@@oX<<>:=><1<<>>><<<<<>:=><1<<>>><<<<<>:=><1<<>>",
"1<><><>>=<X&@,$#+@@oX<>>=<<<><<11<><><>>=<<<><<11<><><>>=<<<><<1",
">><<<>::->X@,$%XO+@@.>::->:::><>>><<<>::->:::><>>><<<>::->:::><>",
";:;;::>:-Xo@$%X XO+@o.>:-:>:;;:;;:;;::>:-:>:;;:;;:;;::>:-:>:;;:;",
":::::>::=Xo++#X XO+@o.::=;:;:::::::::>::=;:;:::::::::>::=;:;::::",
";:;;;;;=*Xo@+OX X#++o.;=*=;;;;;;;:;;;;;=*=;;;;;;;:;;;;;=*=;;;;;;",
"*==--==***X&@+#X%+&@.==***==-=***==--==***==-=***==--==***==-=**",
"=>>11111<<Xo&@+O+&+o.111<<11<>-*=>>11111<<11<>-*=>>11111<<11<>-*",
":><<<<111<<.o&&&&@o.<<111<<<<<>=:><<<<111<<<<<>=:><<<<111<<<<<>=",
"::><><<><<><..ooo..<><<><<><>>:-::><><<><<><>>:-::><><<><<><>>:-",
":>:><<<<><<>:;...>:><<<<><<>:;:-:>:><<<<><<>:;:-:>:><<<<><<>:;:-",
";:::;;::;;;:>:;=;:::;;::;;;:>:;=;:::;;::;;;:>:;=;:::;;::;;;:>:;=",
";;:;:::::;:::;;=;;:;:::::;:::;;=;;:;:::::;:::;;=;;:;:::::;:::;;=",
"=;;;;;;;;;;;;;=*=;;;;;;;;;;;;;=*=;;;;;;;;;;;;;=*=;;;;;;;;;;;;;=*",
"*=--==****==-=***=--==****==-=***=--==****==-=***=--==****==-=**",
"<<<<<>>=*->><111<<<<<>>=*->><111<<<<<>>=*->><111<<<<<>>=*->><111",
"><<<<<>:=><1<<>>><<<<<>:=><1<<>>><<<<<>:=><1<<>>><<<<<>:=><1<<>>",
"1<><><>>=<<<><<11<><><>>=<<<><<11<><><>>=<<<><<11<><><>>=<<<><<1",
">><<<>::->:::><>>><<<>::->:::><>>><<<>::->:::><>>><<<>::->:::><>",
";:;;::>:-:>:;;:;;:;;::>:-:>:;;:;;:;;::>:-:>:;;:;;:;;::>:-:>:;;:;",
":::::>::=;:;:::::::::>::=;:;:::::::::>::=;:;:::::::::>::=;:;::::",
";:;;;;;=*=;;;;;;;:;;;;;=*=;;;;;;;:;;;;;=*=;;;;;;;:;;;;;=*=;;;;;;",
"*==--==***==-=***==--==***==-=***==--==***==-=***==--==***==-=**"
};
