/* XPM */
static char *result[] = {
/* columns rows colors chars-per-pixel */
"64 64 25 1 ",
"  c #1B2B10",
". c #200E30",
"X c #102C31",
"o c #1E4835",
"O c #2D1740",
"+ c #38204D",
"@ c #44295B",
"# c #4E3563",
"$ c #316364",
"% c #579143",
"& c #71AC49",
"* c #659B7D",
"= c #88C35A",
"- c #B5E45A",
"; c #97D16B",
": c #4E8386",
"> c #AEA383",
", c #C9C097",
"< c #D1CE9A",
"1 c #D6D99F",
"2 c #DFE4A8",
"3 c #EAF4B2",
"4 c #CBFCDD",
"5 c #EEF9C7",
"6 c #ECF3DF",
/* pixels */
",3366666556653<>,3366666556653<>,3366666556653<>,3366666556653<>",
"235555666555553,235555666555553,235555666555553,235555666555553,",
"223535535535332<223535535535332<223535535535332<223535535535332<",
"232355553553212<232355553553212<232355553553212<232355553553212<",
"122211221112321,122211221112321,122211221112321,122211221112321,",
"112122222122211,112122222122211,112122222122211,112122222122211,",
",1111111111111,>,1111111111111,>,1111111111111,>,1111111111111,>",
">,<<,,>>>>,,<,>>>,<<,,>>>>,,<,>>>,<<,,>>>>,,<,>>>,<<,,>>>>,,<,>>",
"5555533,><3356665555533,><3356665555533,><3356665555533,><335666",
"35555532,356553335555532,356553335555532,356553335555532,3565533",
"65353533,555355665353533,555355665353533,555355665353533,5553556",
"33555322<322235333555322<322235333555322<322235$oo555322<3222353",
"12112232<232112112112232<232112112112232<2321+$:::o+2232<2321121",
"22222322,121222222222322,121222222222322,121+#*****#+322,1212222",
"1211111,>,1111111211111,>,1111111211111,>,1+#*4-=&**#O1,>,111111",
">,,<<,,>>>,,<,>>>,,<<,,>>>,,<,>>>,,<<,,>>>,+@4-;o%&*@O,>>>,,<,>>",
",3366666556653<>,3366666556653<>,336666655+@*-;o o%&*@+6556653<>",
"235555666555553,235555666555553,2355556665+@&&=o o%&*#O66555553,",
"223535535535332<223535535535332<2235355355O@*&%o o=&&@O35535332<",
"232355553553212<232355553553212<23235555355O#*&=o;&:#.553553212<",
"122211221112321,122211221112321,12221122111O@:*&%&:&@.221112321,",
"112122222122211,112122222122211,112122222122.@::::*@.2222122211,",
",1111111111111,>,1111111111111,>,111111111111OX$$$X+1111111111,>",
">,<<,,>>>>,,<,>>>,<<,,>>>>,,<,>>>,<<,,>>>>,,<,>XXX<<,,>>>>,,<,>>",
"5555533,><3356665555533,><3356665555533,><3356665555533,><335666",
"35555532,356553335555532,356553335555532,356553335555532,3565533",
"65353533,555355665353533,555355665353533,555355665353533,5553556",
"33555322<322235333555322<322235333555322<322235333555322<3222353",
"12112232<232112112112232<232112112112232<232112112112232<2321121",
"22222322,121222222222322,121222222222322,121222222222322,1212222",
"1211111,>,1111111211111,>,1111111211111,>,1111111211111,>,111111",
">,,<<,,>>>,,<,>>>,,<<,,>>>,,<,>>>,,<<,,>>>,,<,>>>,,<<,,>>>,,<,>>",
",3366666556653<>,3366666556653<>,3366666556653<>,3366666556653<>",
"235555666555553,235555666555553,235555666555553,235555666555553,",
"223535535535332<223535535535332<223535535535332<223535535535332<",
"232355553553212<232355553553212<232355553553212<232355553553212<",
"122211221112321,122211221112321,122211221112321,122211221112321,",
"112122222122211,112122222122211,112122222122211,112122222122211,",
",1111111111111,>,1111111111111,>,1111111111111,>,1111111111111,>",
">,<<,,>>>>,,<,>>>,<<,,>>>>,,<,>>>,<<,,>>>>,,<,>>>,<<,,>>>>,,<,>>",
"5555533,><3356665555533,><3356665555533,><3356665555533,><335666",
"35555532,356553335555532,356553335555532,356553335555532,3565533",
"65353533,555355665353533,555355665353533,555355665353533,5553556",
"33555322<322235333555322<322235333555322<322235333555322<3222353",
"12112232<232112112112232<232112112112232<232112112112232<2321121",
"22222322,121222222222322,121222222222322,121222222222322,1212222",
"1211111,>,1111111211111,>,1111111211111,>,1111111211111,>,111111",
">,,<<,,>>>,,<,>>>,,<<,,>>>,,<,>>>,,<<,,>>>,,<,>>>,,<<,,>>>,,<,>>",
",3366666556653<>,3366666556653<>,3366666556653<>,3366666556653<>",
"235555666555553,235555666555553,235555666555553,235555666555553,",
"223535535535332<223535535535332<223535535535332<223535535535332<",
"232355553553212<232355553553212<232355553553212<232355553553212<",
"122211221112321,122211221112321,122211221112321,122211221112321,",
"112122222122211,112122222122211,112122222122211,112122222122211,",
",1111111111111,>,1111111111111,>,1111111111111,>,1111111111111,>",
">,<<,,>>>>,,<,>>>,<<,,>>>>,,<,>>>,<<,,>>>>,,<,>>>,<<,,>>>>,,<,>>",
"5555533,><3356665555533,><3356665555533,><3356665555533,><335666",
"35555532,356553335555532,356553335555532,356553335555532,3565533",
"65353533,555355665353533,555355665353533,555355665353533,5553556",
"33555322<322235333555322<322235333555322<322235333555322<3222353",
"12112232<232112112112232<232112112112232<232112112112232<2321121",
"22222322,121222222222322,121222222222322,121222222222322,1212222",
"1211111,>,1111111211111,>,1111111211111,>,1111111211111,>,111111",
">,,<<,,>>>,,<,>>>,,<<,,>>>,,<,>>>,,<<,,>>>,,<,>>>,,<<,,>>>,,<,>>"
};
