/* XPM */
static const char *xpm_[] = {
/* columns rows colors chars-per-pixel */
"64 64 23 1 ",
"  c #1B2B10",
". c #102C31",
"X c #1E4835",
"o c #2D1740",
"O c #44295B",
"+ c #4E3563",
"@ c #316364",
"# c #579143",
"$ c #71AC49",
"% c #659B7D",
"& c #88C35A",
"* c #B5E45A",
"= c #97D16B",
"- c #4E8386",
"; c #AEA383",
": c #C9C097",
"> c #D1CE9A",
", c #D6D99F",
"< c #DFE4A8",
"1 c #EAF4B2",
"2 c #CBFCDD",
"3 c #EEF9C7",
"4 c #ECF3DF",
/* pixels */
":1144444334431>;:1144444334431>;:1144444334431>;:1144444334431>;",
"<13333444333331:<13333444333331:<13333444333331:<13333444333331:",
"<<131331331311<><<131331331311<><<131331331311<><<131331331311<>",
"<1<133331331<,<><1<133331331<,<><1<133331331<,<><1<133331331<,<>",
",<<<,,<<,,,<1<,:,<<<,,<<,,,<1<,:,<<<,,<<,,,<1<,:,<<<,,<<,,,<1<,:",
",,<,<<<<<,<<<,,:,,<,<<<<<,<<<,,:,,<,<<<<<,<<<,,:,,<,<<<<<,<<<,,:",
":,,,,,,,,,,,,,:;:,,,,,,,,,,,,,:;:,,,,,,,,,,,,,:;:,,,,,,,,,,,,,:;",
";:>>::;;;;::>:;;;:>>::;;;;::>:;;;:>>::;;;;::>:;;;:>>::;;;;::>:;;",
"3333311:;>1134443333311:;>1134443333311:;>1134443333311:;>113444",
"1333331<:13433111333331<:13433111333331<:13433111333331<:1343311",
"43131311:333133443131311:333133443131311:333133443131311:3331334",
"113331<<>1<<<131113331<<>1<<<131113331<<>1<<<131113331<<>1<<<131",
",<,,<<1<><1<,,<,,<,,<<1<><1<,,<,,<,,<<1<><1<,,<,,<,,<<1<><1<,,<,",
"<<<<<1<<:,<,<<<<<<<<<1<<:,<,<<<<<<<<<1<<:,<,<<<<<<<<<1<<:,<,<<<<",
",<,,,,,:;:,,,,,,,<,,,,,:;:,,,,,,,<,,,,,:;:,,,,,,,<,,,,,:;:,,,,,,",
";::>>::;;;::>:;;;::>@XX;;;::>:;;;::>>::;;;::>:;;;::>>::;;;::>:;;",
":1144444334431>;:1@@---XX34431>;:1144444334431>;:1144444334431>;",
"<13333444333331:<o-%%%%%@o33331:<13333444333331:<13333444333331:",
"<<131331331311<>oO%2*&$%%Oo311<><<131331331311<><<131331331311<>",
"<1<133331331<,<>o%2*=X#$%%o1<,<><1<133331331<,<><1<133331331<,<>",
",<<<,,<<,,,<1<,oO%*=X X#$%+o1<,:,<<<,,<<,,,<1<,:,<<<,,<<,,,<1<,:",
",,<,<<<<<,<<<,,o+$$&X X#$%+o<,,:,,<,<<<<<,<<<,,:,,<,<<<<<,<<<,,:",
":,,,,,,,,,,,,,:oO%$#X X&$$Oo,,:;:,,,,,,,,,,,,,:;:,,,,,,,,,,,,,:;",
";:>>::;;;;::>:;;o-%$&X=$-%o:>:;;;:>>::;;;;::>:;;;:>>::;;;;::>:;;",
"3333311:;>113444oO-%$#$-$Oo134443333311:;>1134443333311:;>113444",
"1333331<:13433111o@----%@o3433111333331<:13433111333331<:1343311",
"43131311:333133443..@@@..333133443131311:333133443131311:3331334",
"113331<<>1<<<1311133...<>1<<<131113331<<>1<<<131113331<<>1<<<131",
",<,,<<1<><1<,,<,,<,,<<1<><1<,,<,,<,,<<1<><1<,,<,,<,,<<1<><1<,,<,",
"<<<<<1<<:,<,<<<<<<<<<1<<:,<,<<<<<<<<<1<<:,<,<<<<<<<<<1<<:,<,<<<<",
",<,,,,,:;:,,,,,,,<,,,,,:;:,,,,,,,<,,,,,:;:,,,,,,,<,,,,,:;:,,,,,,",
";::>>::;;;::>:;;;::>>::;;;::>:;;;::>>::;;;::>:;;;::>>::;;;::>:;;",
":1144444334431>;:1144444334431>;:1144444334431>;:1144444334431>;",
"<13333444333331:<13333444333331:<13333444333331:<13333444333331:",
"<<131331331311<><<131331331311<><<131331331311<><<131331331311<>",
"<1<133331331<,<><1<133331331<,<><1<133331331<,<><1<133331331<,<>",
",<<<,,<<,,,<1<,:,<<<,,<<,,,<1<,:,<<<,,<<,,,<1<,:,<<<,,<<,,,<1<,:",
",,<,<<<<<,<<<,,:,,<,<<<<<,<<<,,:,,<,<<<<<,<<<,,:,,<,<<<<<,<<<,,:",
":,,,,,,,,,,,,,:;:,,,,,,,,,,,,,:;:,,,,,,,,,,,,,:;:,,,,,,,,,,,,,:;",
";:>>::;;;;::>:;;;:>>::;;;;::>:;;;:>>::;;;;::>:;;;:>>::;;;;::>:;;",
"3333311:;>1134443333311:;>1134443333311:;>1134443333311:;>113444",
"1333331<:13433111333331<:13433111333331<:13433111333331<:1343311",
"43131311:333133443131311:333133443131311:333133443131311:3331334",
"113331<<>1<<<131113331<<>1<<<131113331<<>1<<<131113331<<>1<<<131",
",<,,<<1<><1<,,<,,<,,<<1<><1<,,<,,<,,<<1<><1<,,<,,<,,<<1<><1<,,<,",
"<<<<<1<<:,<,<<<<<<<<<1<<:,<,<<<<<<<<<1<<:,<,<<<<<<<<<1<<:,<,<<<<",
",<,,,,,:;:,,,,,,,<,,,,,:;:,,,,,,,<,,,,,:;:,,,,,,,<,,,,,:;:,,,,,,",
";::>>::;;;::>:;;;::>>::;;;::>:;;;::>>::;;;::>:;;;::>>::;;;::>:;;",
":1144444334431>;:1144444334431>;:1144444334431>;:1144444334431>;",
"<13333444333331:<13333444333331:<13333444333331:<13333444333331:",
"<<131331331311<><<131331331311<><<131331331311<><<131331331311<>",
"<1<133331331<,<><1<133331331<,<><1<133331331<,<><1<133331331<,<>",
",<<<,,<<,,,<1<,:,<<<,,<<,,,<1<,:,<<<,,<<,,,<1<,:,<<<,,<<,,,<1<,:",
",,<,<<<<<,<<<,,:,,<,<<<<<,<<<,,:,,<,<<<<<,<<<,,:,,<,<<<<<,<<<,,:",
":,,,,,,,,,,,,,:;:,,,,,,,,,,,,,:;:,,,,,,,,,,,,,:;:,,,,,,,,,,,,,:;",
";:>>::;;;;::>:;;;:>>::;;;;::>:;;;:>>::;;;;::>:;;;:>>::;;;;::>:;;",
"3333311:;>1134443333311:;>1134443333311:;>1134443333311:;>113444",
"1333331<:13433111333331<:13433111333331<:13433111333331<:1343311",
"43131311:333133443131311:333133443131311:333133443131311:3331334",
"113331<<>1<<<131113331<<>1<<<131113331<<>1<<<131113331<<>1<<<131",
",<,,<<1<><1<,,<,,<,,<<1<><1<,,<,,<,,<<1<><1<,,<,,<,,<<1<><1<,,<,",
"<<<<<1<<:,<,<<<<<<<<<1<<:,<,<<<<<<<<<1<<:,<,<<<<<<<<<1<<:,<,<<<<",
",<,,,,,:;:,,,,,,,<,,,,,:;:,,,,,,,<,,,,,:;:,,,,,,,<,,,,,:;:,,,,,,",
";::>>::;;;::>:;;;::>>::;;;::>:;;;::>>::;;;::>:;;;::>>::;;;::>:;;"
};
