/* XPM */
static char *_97d56cf9f6b882a0f6fc471[] = {
/* columns rows colors chars-per-pixel */
"64 64 14 1 ",
"  c #200E30",
". c #2D1740",
"X c #38204D",
"o c #44295B",
"O c #4E3563",
"+ c #59426C",
"@ c #AEA383",
"# c #C9C097",
"$ c #D1CE9A",
"% c #D6D99F",
"& c #DFE4A8",
"* c #EAF4B2",
"= c #EEF9C7",
"- c #ECF3DF",
/* pixels */
"#**-----==--=*$@#**-----==--=*$@#**-----==--=*$@#**-----==--=*$@",
"&*====---=====*#&*====---=====*#&*====---=====*#&*====---=====*#",
"&&*=*==*==*=**&$&&*=*==*==*=**&$&&*=*==*==*=**&$&&*=*==*==*=**&$",
"&*&*====*==*&%&$&*&*====*==*&%&$&*&*====*==*&%&$&*&*====*==*&%&$",
"%&&&%%&&%%%&*&%#%&&&%%&&%%%&*&%#%&&&%%&&%%%&*&%#%&&&%%&&%%%&*&%#",
"%%&%&&&&&%&&&%%#%%&%&&&&&%&&&%%#%%&%&&&&&%&&&%%#%%&%&&&&&%&&&%%#",
"#%%%%%%%%%%%%%#@#%%%%%%%%%%%%%#@#%%%%%%%%%%%%%#@#%%%%%%%%%%%%%#@",
"@#$$##@@@@##$#@@@#$$##@@@@##$#@@@#$$##@@@@##$#@@@#$$##@@@@##$#@@",
"=====**#@$**=---=====**#@$**=---=====**#@$**=---=====**#@$**=---",
"*=====*&#*=-==***=====*&#*=-==***=====*&#*=-==***=====*&#*=-==**",
"-=*=*=**#===*==--=*=*=**#===*==--=*=*=**#===*==--=*=*=**#===*==-",
"**===*&&$*&&&*=***===*&&$*&&&*=***===*&&$*&&&*=***===*&&$*&&&*=*",
"%&%%&&*&$&*&%%&%%&%%&&*&$&*&%%&%%&%%&&*&$&*&%%&%%&%%&&*&$&*&%%&%",
"&&&&&*&&#%&%&&&&&&&&&*&&#%&%&&&&&&&&&*&&#%&%&&&&&&&&&*&&#%&%&&&&",
"%&%%%%%#@#%%%%%%%&%%%%%#@#%%%%%%%&%%%%%#@#%%%%%%%&%%%%%#@#%%%%%%",
"@##$$##@@@##$#@@@##$. .@@@##$#@@@##$$##@@@##$#@@@##$$##@@@##$#@@",
"#**-----==--=*$@#*..o o..=--=*$@#**-----==--=*$@#**-----==--=*$@",
"&*====---=====*#&.ooO Ooo.====*#&*====---=====*#&*====---=====*#",
"&&*=*==*==*=**&$.XooO OooX.=**&$&&*=*==*==*=**&$&&*=*==*==*=**&$",
"&*&*====*==*&%&$XoOo+.OoOo.*&%&$&*&*====*==*&%&$&*&*====*==*&%&$",
"%&&&%%&&%%%&*&%.XoO++.+oOOX.*&%#%&&&%%&&%%%&*&%#%&&&%%&&%%%&*&%#",
"%%&%&&&&&%&&&%%.Xo++O.++OOo.&%%#%%&%&&&&&%&&&%%#%%&%&&&&&%&&&%%#",
"#%%%%%%%%%%%%%#.Xo+oO.O+oOo.%%#@#%%%%%%%%%%%%%#@#%%%%%%%%%%%%%#@",
"@#$$##@@@@##$#@@.oOoO.O+oo.#$#@@@#$$##@@@@##$#@@@#$$##@@@@##$#@@",
"=====**#@$**=---.XooO OOoX *=---=====**#@$**=---=====**#@$**=---",
"*=====*&#*=-==***.XoO Ooo =-==***=====*&#*=-==***=====*&#*=-==**",
"-=*=*=**#===*==--=  o o  ===*==--=*=*=**#===*==--=*=*=**#===*==-",
"**===*&&$*&&&*=***==   &$*&&&*=***===*&&$*&&&*=***===*&&$*&&&*=*",
"%&%%&&*&$&*&%%&%%&%%&&*&$&*&%%&%%&%%&&*&$&*&%%&%%&%%&&*&$&*&%%&%",
"&&&&&*&&#%&%&&&&&&&&&*&&#%&%&&&&&&&&&*&&#%&%&&&&&&&&&*&&#%&%&&&&",
"%&%%%%%#@#%%%%%%%&%%%%%#@#%%%%%%%&%%%%%#@#%%%%%%%&%%%%%#@#%%%%%%",
"@##$$##@@@##$#@@@##$$##@@@##$#@@@##$$##@@@##$#@@@##$$##@@@##$#@@",
"#**-----==--=*$@#**-----==--=*$@#**-----==--=*$@#**-----==--=*$@",
"&*====---=====*#&*====---=====*#&*====---=====*#&*====---=====*#",
"&&*=*==*==*=**&$&&*=*==*==*=**&$&&*=*==*==*=**&$&&*=*==*==*=**&$",
"&*&*====*==*&%&$&*&*====*==*&%&$&*&*====*==*&%&$&*&*====*==*&%&$",
"%&&&%%&&%%%&*&%#%&&&%%&&%%%&*&%#%&&&%%&&%%%&*&%#%&&&%%&&%%%&*&%#",
"%%&%&&&&&%&&&%%#%%&%&&&&&%&&&%%#%%&%&&&&&%&&&%%#%%&%&&&&&%&&&%%#",
"#%%%%%%%%%%%%%#@#%%%%%%%%%%%%%#@#%%%%%%%%%%%%%#@#%%%%%%%%%%%%%#@",
"@#$$##@@@@##$#@@@#$$##@@@@##$#@@@#$$##@@@@##$#@@@#$$##@@@@##$#@@",
"=====**#@$**=---=====**#@$**=---=====**#@$**=---=====**#@$**=---",
"*=====*&#*=-==***=====*&#*=-==***=====*&#*=-==***=====*&#*=-==**",
"-=*=*=**#===*==--=*=*=**#===*==--=*=*=**#===*==--=*=*=**#===*==-",
"**===*&&$*&&&*=***===*&&$*&&&*=***===*&&$*&&&*=***===*&&$*&&&*=*",
"%&%%&&*&$&*&%%&%%&%%&&*&$&*&%%&%%&%%&&*&$&*&%%&%%&%%&&*&$&*&%%&%",
"&&&&&*&&#%&%&&&&&&&&&*&&#%&%&&&&&&&&&*&&#%&%&&&&&&&&&*&&#%&%&&&&",
"%&%%%%%#@#%%%%%%%&%%%%%#@#%%%%%%%&%%%%%#@#%%%%%%%&%%%%%#@#%%%%%%",
"@##$$##@@@##$#@@@##$$##@@@##$#@@@##$$##@@@##$#@@@##$$##@@@##$#@@",
"#**-----==--=*$@#**-----==--=*$@#**-----==--=*$@#**-----==--=*$@",
"&*====---=====*#&*====---=====*#&*====---=====*#&*====---=====*#",
"&&*=*==*==*=**&$&&*=*==*==*=**&$&&*=*==*==*=**&$&&*=*==*==*=**&$",
"&*&*====*==*&%&$&*&*====*==*&%&$&*&*====*==*&%&$&*&*====*==*&%&$",
"%&&&%%&&%%%&*&%#%&&&%%&&%%%&*&%#%&&&%%&&%%%&*&%#%&&&%%&&%%%&*&%#",
"%%&%&&&&&%&&&%%#%%&%&&&&&%&&&%%#%%&%&&&&&%&&&%%#%%&%&&&&&%&&&%%#",
"#%%%%%%%%%%%%%#@#%%%%%%%%%%%%%#@#%%%%%%%%%%%%%#@#%%%%%%%%%%%%%#@",
"@#$$##@@@@##$#@@@#$$##@@@@##$#@@@#$$##@@@@##$#@@@#$$##@@@@##$#@@",
"=====**#@$**=---=====**#@$**=---=====**#@$**=---=====**#@$**=---",
"*=====*&#*=-==***=====*&#*=-==***=====*&#*=-==***=====*&#*=-==**",
"-=*=*=**#===*==--=*=*=**#===*==--=*=*=**#===*==--=*=*=**#===*==-",
"**===*&&$*&&&*=***===*&&$*&&&*=***===*&&$*&&&*=***===*&&$*&&&*=*",
"%&%%&&*&$&*&%%&%%&%%&&*&$&*&%%&%%&%%&&*&$&*&%%&%%&%%&&*&$&*&%%&%",
"&&&&&*&&#%&%&&&&&&&&&*&&#%&%&&&&&&&&&*&&#%&%&&&&&&&&&*&&#%&%&&&&",
"%&%%%%%#@#%%%%%%%&%%%%%#@#%%%%%%%&%%%%%#@#%%%%%%%&%%%%%#@#%%%%%%",
"@##$$##@@@##$#@@@##$$##@@@##$#@@@##$$##@@@##$#@@@##$$##@@@##$#@@"
};
