/* XPM */
static char *out_1[] = {
/* columns rows colors chars-per-pixel */
"64 64 8 1 ",
"  c #AEA383",
". c #C9C097",
"X c #D1CE9A",
"o c #D6D99F",
"O c #DFE4A8",
"+ c #EAF4B2",
"@ c #EEF9C7",
"# c #ECF3DF",
/* pixels */
".++#####@@##@+X .++#####@@##@+X .++#####@@##@+X .++#####@@##@+X ",
"O+@@@@###@@@@@+.O+@@@@###@@@@@+.O+@@@@###@@@@@+.O+@@@@###@@@@@+.",
"OO+@+@@+@@+@++OXOO+@+@@+@@+@++OXOO+@+@@+@@+@++OXOO+@+@@+@@+@++OX",
"O+O+@@@@+@@+OoOXO+O+@@@@+@@+OoOXO+O+@@@@+@@+OoOXO+O+@@@@+@@+OoOX",
"oOOOooOOoooO+Oo.oOOOooOOoooO+Oo.oOOOooOOoooO+Oo.oOOOooOOoooO+Oo.",
"ooOoOOOOOoOOOoo.ooOoOOOOOoOOOoo.ooOoOOOOOoOOOoo.ooOoOOOOOoOOOoo.",
".ooooooooooooo. .ooooooooooooo. .ooooooooooooo. .ooooooooooooo. ",
" .XX..    ..X.   .XX..    ..X.   .XX..    ..X.   .XX..    ..X.  ",
"@@@@@++. X++@###@@@@@++. X++@###@@@@@++. X++@###@@@@@++. X++@###",
"+@@@@@+O.+@#@@+++@@@@@+O.+@#@@+++@@@@@+O.+@#@@+++@@@@@+O.+@#@@++",
"#@+@+@++.@@@+@@##@+@+@++.@@@+@@##@+@+@++.@@@+@@##@+@+@++.@@@+@@#",
"++@@@+OOX+OOO+@+++@@@+OOX+OOO+@+++@@@+OOX+OOO+@+++@@@+OOX+OOO+@+",
"oOooOO+OXO+OooOooOooOO+OXO+OooOooOooOO+OXO+OooOooOooOO+OXO+OooOo",
"OOOOO+OO.oOoOOOOOOOOO+OO.oOoOOOOOOOOO+OO.oOoOOOOOOOOO+OO.oOoOOOO",
"oOooooo. .oooooooOooooo. .oooooooOooooo. .oooooooOooooo. .oooooo",
" ..XX..   ..X.   ..XX..   ..X.   ..XX..   ..X.   ..XX..   ..X.  ",
".++#####@@##@+X .++#####@@##@+X .++#####@@##@+X .++#####@@##@+X ",
"O+@@@@###@@@@@+.O+@@@@###@@@@@+.O+@@@@###@@@@@+.O+@@@@###@@@@@+.",
"OO+@+@@+@@+@++OXOO+@+@@+@@+@++OXOO+@+@@+@@+@++OXOO+@+@@+@@+@++OX",
"O+O+@@@@+@@+OoOXO+O+@@@@+@@+OoOXO+O+@@@@+@@+OoOXO+O+@@@@+@@+OoOX",
"oOOOooOOoooO+Oo.oOOOooOOoooO+Oo.oOOOooOOoooO+Oo.oOOOooOOoooO+Oo.",
"ooOoOOOOOoOOOoo.ooOoOOOOOoOOOoo.ooOoOOOOOoOOOoo.ooOoOOOOOoOOOoo.",
".ooooooooooooo. .ooooooooooooo. .ooooooooooooo. .ooooooooooooo. ",
" .XX..    ..X.   .XX..    ..X.   .XX..    ..X.   .XX..    ..X.  ",
"@@@@@++. X++@###@@@@@++. X++@###@@@@@++. X++@###@@@@@++. X++@###",
"+@@@@@+O.+@#@@+++@@@@@+O.+@#@@+++@@@@@+O.+@#@@+++@@@@@+O.+@#@@++",
"#@+@+@++.@@@+@@##@+@+@++.@@@+@@##@+@+@++.@@@+@@##@+@+@++.@@@+@@#",
"++@@@+OOX+OOO+@+++@@@+OOX+OOO+@+++@@@+OOX+OOO+@+++@@@+OOX+OOO+@+",
"oOooOO+OXO+OooOooOooOO+OXO+OooOooOooOO+OXO+OooOooOooOO+OXO+OooOo",
"OOOOO+OO.oOoOOOOOOOOO+OO.oOoOOOOOOOOO+OO.oOoOOOOOOOOO+OO.oOoOOOO",
"oOooooo. .oooooooOooooo. .oooooooOooooo. .oooooooOooooo. .oooooo",
" ..XX..   ..X.   ..XX..   ..X.   ..XX..   ..X.   ..XX..   ..X.  ",
".++#####@@##@+X .++#####@@##@+X .++#####@@##@+X .++#####@@##@+X ",
"O+@@@@###@@@@@+.O+@@@@###@@@@@+.O+@@@@###@@@@@+.O+@@@@###@@@@@+.",
"OO+@+@@+@@+@++OXOO+@+@@+@@+@++OXOO+@+@@+@@+@++OXOO+@+@@+@@+@++OX",
"O+O+@@@@+@@+OoOXO+O+@@@@+@@+OoOXO+O+@@@@+@@+OoOXO+O+@@@@+@@+OoOX",
"oOOOooOOoooO+Oo.oOOOooOOoooO+Oo.oOOOooOOoooO+Oo.oOOOooOOoooO+Oo.",
"ooOoOOOOOoOOOoo.ooOoOOOOOoOOOoo.ooOoOOOOOoOOOoo.ooOoOOOOOoOOOoo.",
".ooooooooooooo. .ooooooooooooo. .ooooooooooooo. .ooooooooooooo. ",
" .XX..    ..X.   .XX..    ..X.   .XX..    ..X.   .XX..    ..X.  ",
"@@@@@++. X++@###@@@@@++. X++@###@@@@@++. X++@###@@@@@++. X++@###",
"+@@@@@+O.+@#@@+++@@@@@+O.+@#@@+++@@@@@+O.+@#@@+++@@@@@+O.+@#@@++",
"#@+@+@++.@@@+@@##@+@+@++.@@@+@@##@+@+@++.@@@+@@##@+@+@++.@@@+@@#",
"++@@@+OOX+OOO+@+++@@@+OOX+OOO+@+++@@@+OOX+OOO+@+++@@@+OOX+OOO+@+",
"oOooOO+OXO+OooOooOooOO+OXO+OooOooOooOO+OXO+OooOooOooOO+OXO+OooOo",
"OOOOO+OO.oOoOOOOOOOOO+OO.oOoOOOOOOOOO+OO.oOoOOOOOOOOO+OO.oOoOOOO",
"oOooooo. .oooooooOooooo. .oooooooOooooo. .oooooooOooooo. .oooooo",
" ..XX..   ..X.   ..XX..   ..X.   ..XX..   ..X.   ..XX..   ..X.  ",
".++#####@@##@+X .++#####@@##@+X .++#####@@##@+X .++#####@@##@+X ",
"O+@@@@###@@@@@+.O+@@@@###@@@@@+.O+@@@@###@@@@@+.O+@@@@###@@@@@+.",
"OO+@+@@+@@+@++OXOO+@+@@+@@+@++OXOO+@+@@+@@+@++OXOO+@+@@+@@+@++OX",
"O+O+@@@@+@@+OoOXO+O+@@@@+@@+OoOXO+O+@@@@+@@+OoOXO+O+@@@@+@@+OoOX",
"oOOOooOOoooO+Oo.oOOOooOOoooO+Oo.oOOOooOOoooO+Oo.oOOOooOOoooO+Oo.",
"ooOoOOOOOoOOOoo.ooOoOOOOOoOOOoo.ooOoOOOOOoOOOoo.ooOoOOOOOoOOOoo.",
".ooooooooooooo. .ooooooooooooo. .ooooooooooooo. .ooooooooooooo. ",
" .XX..    ..X.   .XX..    ..X.   .XX..    ..X.   .XX..    ..X.  ",
"@@@@@++. X++@###@@@@@++. X++@###@@@@@++. X++@###@@@@@++. X++@###",
"+@@@@@+O.+@#@@+++@@@@@+O.+@#@@+++@@@@@+O.+@#@@+++@@@@@+O.+@#@@++",
"#@+@+@++.@@@+@@##@+@+@++.@@@+@@##@+@+@++.@@@+@@##@+@+@++.@@@+@@#",
"++@@@+OOX+OOO+@+++@@@+OOX+OOO+@+++@@@+OOX+OOO+@+++@@@+OOX+OOO+@+",
"oOooOO+OXO+OooOooOooOO+OXO+OooOooOooOO+OXO+OooOooOooOO+OXO+OooOo",
"OOOOO+OO.oOoOOOOOOOOO+OO.oOoOOOOOOOOO+OO.oOoOOOOOOOOO+OO.oOoOOOO",
"oOooooo. .oooooooOooooo. .oooooooOooooo. .oooooooOooooo. .oooooo",
" ..XX..   ..X.   ..XX..   ..X.   ..XX..   ..X.   ..XX..   ..X.  "
};
