/* XPM */
static char *_97d56d59f6b882a0f6fc561[] = {
/* columns rows colors chars-per-pixel */
"64 64 27 1 ",
"  c #1B2B10",
". c #200E30",
"X c #102C31",
"o c #1E4835",
"O c #2D1740",
"+ c #38204D",
"@ c #44295B",
"# c #4E3563",
"$ c #316364",
"% c #59426C",
"& c #579143",
"* c #71AC49",
"= c #52816A",
"- c #659B7D",
"; c #88C35A",
": c #B5E45A",
"> c #97D16B",
", c #4E8386",
"< c #AEA383",
"1 c #C9C097",
"2 c #D1CE9A",
"3 c #D6D99F",
"4 c #DFE4A8",
"5 c #EAF4B2",
"6 c #CBFCDD",
"7 c #EEF9C7",
"8 c #ECF3DF",
/* pixels */
"155888887788752<155888887788752<155888887788752<155888887788752<",
"4577778887777751457777888777775145777788877777514577778887777751",
"4457577577575542445757757757554244575775775755424457577577575542",
"4545777757754342454577775775434245457777577543424545777757754342",
"3444334433345431344433443334543134443344333454313444334433345431",
"3343444443444331334344444344433133434444434443313343444443444331",
"133333333333331<133333333333331<133333333333331<133333333333331<",
"<12211<<<<1121<<<12211<<<<1121<<<12211<<<<1121<<<12211<<<<1121<<",
"77777551<255788877777551<255788877777551<255788877777551<2557888",
"5777775415787755577777541578775557777754157877555777775415787755",
"8757575517775778875757551777577887575755177757788757575517775778",
"5577754425444575557775442544457555777544254445755577754425444575",
"3433445424543343343344542454334334334454245433433433445424543343",
"4444454413434444444445441343444444444544134344444444454413434444",
"34333331<133333334333331<133333334333331<133333334333331<1333333",
"<112211<<<1121<<<112211<<<1121<<<112211<<<1121<<<112211<<<1121<<",
"155888887788752<155888887788752<155888887788752<155888887788752<",
"4577778887777751457777888777775145777788877777514577778887777751",
"4457577577575542445757757757554244575775775755424457577577575542",
"4545777757754342454577775775434245457777577543424545777757754342",
"3444334433345431344433443334543134443344333454313444334433345431",
"3343444443444331334344444344433133434444434443313343444443444331",
"133333333333331<133333333333331<133333333333331<133333333333331<",
"<12211<<<<1121<<<12211<<<<1121<<<12211<<<<1121<<<12211<<<<1121<<",
"77777551<255788877777551<255788877777551<255788877777551<2557888",
"5777775415787755577777541578775557777754157877555777775415787755",
"8757575517775778875757551777577887575755177757788757575517775778",
"5577754425444575557775442544457555777544254445755577754425444575",
"3433445424543343343344542454334334334454245433433433445424543343",
"4444454413434444444445441343444444444544134344444444454413434444",
"34333331<133333334333331<133333334333331<133333334333331<1333333",
"<112211<<<1121<<<112211<<<1121<<<112211<<<1121<<<112211<<<1121<<",
"155888887788752<155888887788752<155888887788752<155888887788752<",
"4577778887777751457777888777775145777788877777514577778887777751",
"4457577577575542445757757757554244575OoO775755424457577577575542",
"45457777577543424545777757754342454+O@=@O+7543424545777757754342",
"3444334433345431344433443334543134+@#=-=#@+454313444334433345431",
"334344444344433133434444434443313++@6:;*-@++43313343444443444331",
"133333333333331<133333333333331<1+@#:>o&*#@+331<133333333333331<",
"<12211<<<<1121<<<12211<<<<1121<<+@#&>o o&&%+O1<<<12211<<<<1121<<",
"77777551<255788877777551<2557888O+%&;o o&&%@O88877777551<2557888",
"57777754157877555777775415787755O+%&&o o;&#@O7555777775415787755",
"875757551777577887575755177757788O@#*;o>*#@O57788757575517775778",
"557775442544457555777544254445755O+@=*&*=#+.45755577754425444575",
"3433445424543343343344542454334334O@#$,$#@.433433433445424543343",
"44444544134344444444454413434444444..@$@..4344444444454413434444",
"34333331<133333334333331<133333334333.X.<133333334333331<1333333",
"<112211<<<1121<<<112211<<<1121<<<112211<<<1121<<<112211<<<1121<<",
"155888887788752<155888887788752<155888887788752<155888887788752<",
"4577778887777751457777888777775145777788877777514577778887777751",
"4457577577575542445757757757554244575775775755424457577577575542",
"4545777757754342454577775775434245457777577543424545777757754342",
"3444334433345431344433443334543134443344333454313444334433345431",
"3343444443444331334344444344433133434444434443313343444443444331",
"133333333333331<133333333333331<133333333333331<133333333333331<",
"<12211<<<<1121<<<12211<<<<1121<<<12211<<<<1121<<<12211<<<<1121<<",
"77777551<255788877777551<255788877777551<255788877777551<2557888",
"5777775415787755577777541578775557777754157877555777775415787755",
"8757575517775778875757551777577887575755177757788757575517775778",
"5577754425444575557775442544457555777544254445755577754425444575",
"3433445424543343343344542454334334334454245433433433445424543343",
"4444454413434444444445441343444444444544134344444444454413434444",
"34333331<133333334333331<133333334333331<133333334333331<1333333",
"<112211<<<1121<<<112211<<<1121<<<112211<<<1121<<<112211<<<1121<<"
};
