/* XPM */
static char *_97d56d79f6b882a0f6fc597[] = {
/* columns rows colors chars-per-pixel */
"64 64 20 1 ",
"  c #1B2B10",
". c #102C31",
"X c #1E4835",
"o c #316364",
"O c #579143",
"+ c #71AC49",
"@ c #659B7D",
"# c #88C35A",
"$ c #B5E45A",
"% c #97D16B",
"& c #4E8386",
"* c #AEA383",
"= c #C9C097",
"- c #D1CE9A",
"; c #D6D99F",
": c #DFE4A8",
"> c #EAF4B2",
", c #CBFCDD",
"< c #EEF9C7",
"1 c #ECF3DF",
/* pixels */
"=>>11111<<11<>-*=>>11111<<11<>-*=>>11111<<11<>-*=>>11111<<11<>-*",
":><<<<111<<<<<>=:><<<<111<<<<<>=:><<<<111<<<<<>=:><<<<111<<<<<>=",
"::><><<><<><>>:-::><><<><<><>>:-::><><<><<><>>:-::><><<><<><>>:-",
":>:><<<<><<>:;:-:>:><<<<><<>:;:-:>:><<<<><<>:;:-:>:><<<<><<>:;:-",
";:::;;::;;;:>:;=;:::;;::;;;:>:;=;:::;;::;;;:>:;=;:::;;::;;;:>:;=",
";;:;:::::;:::;;=;;:;:::::;:::;;=;;:;:::::;:::;;=;;:;:::::;:::;;=",
"=;;;;;;;;;;;;;=*=;;;;;;;;;;;;;=*=;;;;;;;;;;;;;=*=;;;;;;;;;;;;;=*",
"*=--==****==-=***=--==****==-=***=--==****==-=***=--==****==-=**",
"<<<<<>>=*->><111<<<<<>>=*->><111<<<<<>>=*->><111<<<<<>>=*->><111",
"><<<<<>:=><1<<>>><<<<<>:=><1<<>>><<<<<>:=><1<<>>><<<<<>:=><1<<>>",
"1<><><>>=<<<><<11<><><>>=<<<><<11<><><>>=<<<><<11<><><>>=<<<><<1",
">><<<>::->:::><>>><<<>::->:::><>>><<<>::->:::><>>><<<>::->:::><>",
";:;;::>:-:>:;;:;;:;;::>:-:>:;;:;;:;;::>:-:>:;;:;;:;;::>:-:>:;;:;",
":::::>::=;:;:::::::::>::=;:;:::::::::>::=;:;:::::::::>::=;:;::::",
";:;;;;;=*=;;;;;;;:;;;;;=*=;;;;;;;:;;;;;=*=;;;;;;;:;;;;;=*=;;;;;;",
"*==--==***==-=***==--==***==-=***==--==***==-=***==--==***==-=**",
"=>>11111<<11<>-*=>>11111<<11<>-*=>>11111<<11<>-*=>>11111<<11<>-*",
":><<<<111<<<<<>=:><<<<111<<<<<>=:><<<<111<<<<<>=:><<<<111<<<<<>=",
"::><><<><<><>>:-::><><<><<><>>:-::><><<><<><>>:-::><><<><<><>>:-",
":>:><<<<><<>:;:-:>:><<<<><<>:;:-:>:><<<<><<>:;:-:>:><<<<><<>:;:-",
";:::;;::;;;:>:;=;:::;;::;;;:>:;=;:::;;::;;;:>:;=;:::;;::;;;:>:;=",
";;:;:::::;:::;;=;;:;:::::;:::;;=;;:;:::::;:::;;=;;:;:::::;:::;;=",
"=;;;;;;;;;;;;;=*=;;;;;;;;;;;;;=*=;;;;;;;;;;;;;=*=;;;;;;;;;;;;;=*",
"*=--==****==-=***=--==****==-=***=--==****==-=***=--==****==-=**",
"<<<<<>>=*->><111<<<<<>>=*->><111<<<<<>>=*->><111<<<<<>>=*->><111",
"><<<<<>:=><1<<>>><<<<<>:=><1<<>>><<<<<>:=><1<<>>><<<<<>:=><1<<>>",
"1<><><>>=<<<><<11<><><>>=<<<><<11<><><>>=<<<><<11<><><>>=<<<><<1",
">><<<>::->:::><>>><<<>::->:::><>>><<<>::->:::><>>><<<>::->:::><>",
";:;;::>:-:>:;;:;;:;;::>:-:>:;;:;;:;;::>:-:>:;;:;;:;;::>:-:>:;;:;",
":::::>::=;:;:::::::::>::=;:;:::::::::>::=;:;:::::::::>::=;:;::::",
";:;;;;;=*=;;;;;;;:;;;;;=*=;;;;;;;:;;;;;=*=;;;;;;;:;;;;;=*=;;;;;;",
"*==--==***==-=***==--==***==-=***==--==***==-=***==--==***==-=**",
"=>>11111<<11<>-*=>>11111<<11<>-*=>>11111<<11<>-*=>>11111<<11<>-*",
":><<<<111<<<<<>=:><<<<111<<<<<>=:><<<<111<<<<<>=:><<<<111<<<<<>=",
"::><><<><<><>>:-::><><<><<><>>:-::><>oXX<<><>>:-::><><<><<><>>:-",
":>:><<<<><<>:;:-:>:><<<<><<>:;:-:>:oo&&&XX<>:;:-:>:><<<<><<>:;:-",
";:::;;::;;;:>:;=;:::;;::;;;:>:;=;:o&@@@@@oX:>:;=;:::;;::;;;:>:;=",
";;:;:::::;:::;;=;;:;:::::;:::;;=;X&@,$#+@@oX:;;=;;:;:::::;:::;;=",
"=;;;;;;;;;;;;;=*=;;;;;;;;;;;;;=*=X@,$%XO+@@.;;=*=;;;;;;;;;;;;;=*",
"*=--==****==-=***=--==****==-=**Xo@$%X XO+@o.=***=--==****==-=**",
"<<<<<>>=*->><111<<<<<>>=*->><111Xo++#X XO+@o.111<<<<<>>=*->><111",
"><<<<<>:=><1<<>>><<<<<>:=><1<<>>Xo@+OX X#++o.<>>><<<<<>:=><1<<>>",
"1<><><>>=<<<><<11<><><>>=<<<><<11X&@+#X%+&@.><<11<><><>>=<<<><<1",
">><<<>::->:::><>>><<<>::->:::><>>Xo&@+O+&+o.:><>>><<<>::->:::><>",
";:;;::>:-:>:;;:;;:;;::>:-:>:;;:;;:.o&&&&@o.:;;:;;:;;::>:-:>:;;:;",
":::::>::=;:;:::::::::>::=;:;:::::::..ooo..:;:::::::::>::=;:;::::",
";:;;;;;=*=;;;;;;;:;;;;;=*=;;;;;;;:;;;...*=;;;;;;;:;;;;;=*=;;;;;;",
"*==--==***==-=***==--==***==-=***==--==***==-=***==--==***==-=**",
"=>>11111<<11<>-*=>>11111<<11<>-*=>>11111<<11<>-*=>>11111<<11<>-*",
":><<<<111<<<<<>=:><<<<111<<<<<>=:><<<<111<<<<<>=:><<<<111<<<<<>=",
"::><><<><<><>>:-::><><<><<><>>:-::><><<><<><>>:-::><><<><<><>>:-",
":>:><<<<><<>:;:-:>:><<<<><<>:;:-:>:><<<<><<>:;:-:>:><<<<><<>:;:-",
";:::;;::;;;:>:;=;:::;;::;;;:>:;=;:::;;::;;;:>:;=;:::;;::;;;:>:;=",
";;:;:::::;:::;;=;;:;:::::;:::;;=;;:;:::::;:::;;=;;:;:::::;:::;;=",
"=;;;;;;;;;;;;;=*=;;;;;;;;;;;;;=*=;;;;;;;;;;;;;=*=;;;;;;;;;;;;;=*",
"*=--==****==-=***=--==****==-=***=--==****==-=***=--==****==-=**",
"<<<<<>>=*->><111<<<<<>>=*->><111<<<<<>>=*->><111<<<<<>>=*->><111",
"><<<<<>:=><1<<>>><<<<<>:=><1<<>>><<<<<>:=><1<<>>><<<<<>:=><1<<>>",
"1<><><>>=<<<><<11<><><>>=<<<><<11<><><>>=<<<><<11<><><>>=<<<><<1",
">><<<>::->:::><>>><<<>::->:::><>>><<<>::->:::><>>><<<>::->:::><>",
";:;;::>:-:>:;;:;;:;;::>:-:>:;;:;;:;;::>:-:>:;;:;;:;;::>:-:>:;;:;",
":::::>::=;:;:::::::::>::=;:;:::::::::>::=;:;:::::::::>::=;:;::::",
";:;;;;;=*=;;;;;;;:;;;;;=*=;;;;;;;:;;;;;=*=;;;;;;;:;;;;;=*=;;;;;;",
"*==--==***==-=***==--==***==-=***==--==***==-=***==--==***==-=**"
};
