/* XPM */
static char *apple[] = {
/* columns rows colors chars-per-pixel */
"32 32 153 2 ",
"   c None",
".  c #4F0C07",
"X  c #4E0C08",
"o  c #500F09",
"O  c #581307",
"+  c #691F03",
"@  c #4F2209",
"#  c #5C2306",
"$  c #6B2403",
"%  c #662A04",
"&  c #66210B",
"*  c #69240A",
"=  c #6E2C0A",
"-  c #722501",
";  c #752902",
":  c #792C02",
">  c #722C0A",
",  c #6C320A",
"<  c #7F3405",
"1  c #733902",
"2  c #73320B",
"3  c #7D360C",
"4  c #73390A",
"5  c #773C16",
"6  c #7A3E15",
"7  c #833505",
"8  c #853A05",
"9  c #893F05",
"0  c #864107",
"q  c #8B4205",
"w  c #87470F",
"e  c #8B420C",
"r  c #91450C",
"t  c #934C0D",
"y  c #98510B",
"u  c #8E5310",
"i  c #A2530D",
"p  c #A35C0D",
"a  c #AA5E0C",
"s  c #A75F10",
"d  c #A85F10",
"f  c #A3630C",
"g  c #AA600E",
"h  c #AD6A09",
"j  c #B1640D",
"k  c #B16F0A",
"l  c #BA6F0E",
"z  c #B17307",
"x  c #B2720E",
"c  c #BA780E",
"v  c #AC6313",
"b  c #B16311",
"n  c #B86912",
"m  c #BC7211",
"M  c #BF7A1C",
"N  c #8B6242",
"B  c #946E40",
"V  c #B27C45",
"C  c #BE8518",
"Z  c #C3850F",
"A  c #CF8E0C",
"S  c #C58212",
"D  c #C98513",
"F  c #C58B17",
"G  c #CA8D10",
"H  c #CA8C1F",
"J  c #C5951D",
"K  c #C7981D",
"L  c #CD9B1B",
"P  c #D19211",
"I  c #D69A12",
"U  c #D99D12",
"Y  c #D59B1C",
"T  c #DCA314",
"R  c #D6A31C",
"E  c #DBA41B",
"W  c #DEAA1C",
"Q  c #C28F2A",
"!  c #C5962C",
"~  c #CD9C2A",
"^  c #C38438",
"/  c #C69D37",
"(  c #DCA620",
")  c #DEB322",
"_  c #DCAC30",
"`  c #D9A538",
"'  c #E0AF20",
"]  c #E1B425",
"[  c #E2B428",
"{  c #E4BA2D",
"}  c #E6BB32",
"|  c #E3B93B",
" . c #DEC839",
".. c #E6C42F",
"X. c #E8C42F",
"o. c #E8C334",
"O. c #E1C937",
"+. c #E7C63B",
"@. c #E9C33B",
"#. c #E0C939",
"$. c #E8C93D",
"%. c #E6D33F",
"&. c #C68B42",
"*. c #CAA043",
"=. c #D3A04C",
"-. c #E1B344",
";. c #EACB42",
":. c #EDCF48",
">. c #E6D543",
",. c #EBD443",
"<. c #E7DE47",
"1. c #E8D846",
"2. c #ECD349",
"3. c #E7DE49",
"4. c #EBDC4C",
"5. c #F0D54E",
"6. c #F0DA4D",
"7. c #E7C950",
"8. c #E9C857",
"9. c #ECDB51",
"0. c #EAE44C",
"q. c #EAE552",
"w. c #EBEA54",
"e. c #EBE55F",
"r. c #EDEB5F",
"t. c #EBF25C",
"y. c #EECF6E",
"u. c #EDEC60",
"i. c #ECF262",
"p. c #EEF26C",
"a. c #F3ED73",
"s. c #EFF377",
"d. c #EFF578",
"f. c #F1F577",
"g. c #F1F57C",
"h. c #E7C98E",
"j. c #E9D097",
"k. c #F4EB90",
"l. c #F5F793",
"z. c #F5F997",
"x. c #DACDB5",
"c. c #DCD1B5",
"v. c #E7D6B7",
"b. c #F0E1AA",
"n. c #F7F1AF",
"m. c #EEE2B6",
"M. c #F8F0B5",
"N. c #FAF9B0",
"B. c #FAF3B9",
"V. c #F9FCB9",
"C. c #FDFFCA",
"Z. c #FCFFCA",
"A. c #FBFECA",
/* pixels */
"                                                                ",
"                                                                ",
"                                    ; ;                         ",
"                                    ; $                         ",
"                                n y , #                         ",
"                                i t , @                         ",
"                                8 7                             ",
"                                $ $                             ",
"                    a j b i 7 $ # # $ - - -                     ",
"                    &.^ M a < $ % 4 w t e q                     ",
"            v l A -.j.h.` z 1 % 0 v Q ~ F k q - - ;             ",
"            m S R 7.n.B.y.*.B N V =.8.5.o.L p 8 : -             ",
"        b m D R O.e.l.N.M.m.c.x.v.b.k.a.q. .L h 8 - - ;         ",
"        b m P ] <.i.f.l.V.A.A.A.A.V.l.g.u.4...L f 8 : -         ",
"        b m P ] <.t.i.p.s.g.g.g.g.d.p.r.9.2.4.#.L h 8 -         ",
"        b m P ] >.w.w.w.q.q.w.w.w.q.q.4.2.2.w.0...F e +         ",
"        b m P ' $.4.w.w.4.4.w.w.4.2.2.2.;.2.q.q.1.! 5 O         ",
"        i j G W { ;.4.q.2.;.1.>.+.@.;.;.@.;.q.w.6./ 5 .         ",
"        7 y Z T W [ ;.2.:.@.{ ) W [ @.@.[ { 3.w.6./ 5 .         ",
"        - q Z T T W { @.@.{ W T W ] } { W ) <.w.1.! 5 X         ",
"        - q Z T T T W W W W T W } } ] W T ) 3.0.X.C 2 o         ",
"        - q x G I T T T W W T W } } W T W { %. .K f 2 o         ",
"            q p G T T W } } W T W W T W } o.{ J u =             ",
"            - 9 c I T W } } W T W W W ] } } W k = X             ",
"            - 8 g S I T W W T W } @.@.} ] W D p & X             ",
"            - < r s S I T I P Y _ | @.} W S a e & o             ",
"                & 3 d D I I S m M Q ( W D a 3 &                 ",
"                X & e p c c g i i p x x p e & X                 ",
"                    & > 8 q 8 7 7 < 2 > = &                     ",
"                    o O + - - - - $ O o o o                     ",
"                                                                ",
"                                                                "
};
