/* XPM */
static char *egg[] = {
/* columns rows colors chars-per-pixel */
"32 32 152 2 ",
"   c None",
".  c #040406",
"X  c #050406",
"o  c #050506",
"O  c #050407",
"+  c #040507",
"@  c #050507",
"#  c #060507",
"$  c #050607",
"%  c #060607",
"&  c #070707",
"*  c #070309",
"=  c #050508",
"-  c #060408",
";  c #060508",
":  c #070409",
">  c #070509",
",  c #050608",
"<  c #060608",
"1  c #070608",
"2  c #070708",
"3  c #060609",
"4  c #070609",
"5  c #060709",
"6  c #070709",
"7  c #07050A",
"8  c #06060A",
"9  c #07060A",
"0  c #06070A",
"q  c #07070A",
"w  c #07060B",
"e  c #07070B",
"r  c #08030A",
"t  c #09030B",
"y  c #080509",
"u  c #080709",
"i  c #09040B",
"p  c #08050B",
"a  c #09050B",
"s  c #08070A",
"d  c #08060B",
"f  c #08070B",
"g  c #09070B",
"h  c #0A060B",
"j  c #0A070B",
"k  c #0B030D",
"l  c #0B020E",
"z  c #0D020F",
"x  c #09050C",
"c  c #09050D",
"v  c #0A050D",
"b  c #08060C",
"n  c #09060C",
"m  c #09060D",
"M  c #0A060C",
"N  c #0B060C",
"B  c #0A060D",
"V  c #0A070D",
"C  c #0B070D",
"Z  c #0A050E",
"A  c #0B050E",
"S  c #0B070E",
"D  c #0C070D",
"F  c #0C040F",
"G  c #0C050F",
"H  c #0C070E",
"J  c #0D070E",
"K  c #0C060F",
"L  c #0C070F",
"P  c #070809",
"I  c #07080A",
"U  c #080808",
"Y  c #080809",
"T  c #090909",
"R  c #08080A",
"E  c #09080A",
"W  c #09090A",
"Q  c #08080B",
"!  c #09080B",
"~  c #08090B",
"^  c #09090B",
"/  c #0A080A",
"(  c #0A090A",
")  c #0A090B",
"_  c #0A0A0A",
"`  c #0A0A0B",
"'  c #0B0A0B",
"]  c #0C0B0B",
"[  c #09080C",
"{  c #09090C",
"}  c #0A090C",
"|  c #0A090D",
" . c #0A0A0C",
".. c #0B0A0C",
"X. c #0B0B0C",
"o. c #0B0A0D",
"O. c #0C080D",
"+. c #0C0B0C",
"@. c #0E0A0D",
"#. c #0C090E",
"$. c #0D090F",
"%. c #0C0C0D",
"&. c #0D0C0E",
"*. c #0E0211",
"=. c #0E0311",
"-. c #0F0312",
";. c #0C0510",
":. c #0D0510",
">. c #0D0411",
",. c #0D0511",
"<. c #0E0510",
"1. c #0E0511",
"2. c #0E0710",
"3. c #0E0611",
"4. c #0F0512",
"5. c #0D0810",
"6. c #0F0910",
"7. c #0F0912",
"8. c #100513",
"9. c #110513",
"0. c #110713",
"q. c #120115",
"w. c #110214",
"e. c #120214",
"r. c #120315",
"t. c #130216",
"y. c #130317",
"u. c #140116",
"i. c #140117",
"p. c #100514",
"a. c #120614",
"s. c #120615",
"d. c #130417",
"f. c #140417",
"g. c #100811",
"h. c #110911",
"j. c #160119",
"k. c #150318",
"l. c #16031A",
"z. c #140418",
"x. c #160618",
"c. c #16041A",
"v. c #17051A",
"b. c #18051B",
"n. c #19021C",
"m. c #19021D",
"M. c #1B021E",
"N. c #1B081D",
"B. c #1D0121",
"V. c #1D0221",
"C. c #1F0123",
"Z. c #210226",
/* pixels */
"                                                                ",
"                                                                ",
"                                                                ",
"                                                                ",
"                                                                ",
"                                                                ",
"                            e { { N.                            ",
"                        e e { { { 5.B B                         ",
"                      B c.B { { { + + B B                       ",
"                  { { 2.2.{ { e + e e + + e B                   ",
"              d.{ { B c.B { e e e e + e e + 2.B e               ",
"              Z.b.{ e { { { { { B e e e + e e + +               ",
"            Z.V.b.e e { { e { 5.e e B c.B e + + e {             ",
"          B B { d.e e { { { { d.e e d.d.{ + + { { { {           ",
"          { e e { e { { { e e B 2.2.+ + B { { B + + {           ",
"          { e e { e B 2.B e e B c.d.e B c.d.d.e + + e           ",
"        { { e e { { d.V.d.e e B d.2.e e + d.B + + e B B         ",
"        e e e { { { g.d.B e e B e + + + + B B e { B d.B         ",
"        { e e { { { { { e e e { + + + + + 2.d.B + B d.+         ",
"        { B e e e e e B d.B e { U + + e e e B { + e B +         ",
"        c.B e B 2.e { { d.{ e e { e { { + + + + + + + +         ",
"        b.2.{ B b.B { { e d.c.B { B + + + + + + + + + +         ",
"          B { B c.B { e e c.b.B + + + + B B + + { + +           ",
"          e e e e e { e e B B e + + + + 2.B + B B + +           ",
"              e e { { { { e e e B B + + e e + 2.B               ",
"                  { { { { e e { B d.+ + + + +                   ",
"                      e 2.B e { B d.+ + {                       ",
"                          g.e e B e +                           ",
"                              e +                               ",
"                                                                ",
"                                                                ",
"                                                                "
};
