/* XPM */
static char *key[] = {
"32 32 5 1",
"  c None",
". c #FFD700",
"# c #DAA520",
"+ c #B8860B",
"@ c #8B6914",
"                                ",
"                                ",
"           ........             ",
"          .########.            ",
"         .##......##.           ",
"        .##.      .##.          ",
"        .#.        .#.          ",
"        .#.        .#.          ",
"        .#.        .#.          ",
"        .#.        .#.          ",
"        .##.      .##.          ",
"         .##......##.           ",
"          .########.            ",
"           .######.             ",
"            .####.              ",
"            .####.              ",
"            .####.              ",
"            .####.              ",
"            .####.              ",
"            .####.              ",
"           .######.             ",
"          .##....##.            ",
"          .#.    .#.            ",
"          .#.    .#.            ",
"          .##....##.            ",
"           .######.             ",
"           .######.             ",
"            +####+              ",
"             +@@+               ",
"                                ",
"                                ",
"                                "
};
