/* XPM */
static char *east_xpm[] = {
"64 64 4 1",
"  c #2E8B57",
". c #3CB371",
"+ c #90EE90",
"# c #006400",
"................................................................",
".#+.#+.#+.#+.#+.#+.#+.#+.#+.#+.#+.#+.#+.#+.#+.#+.#+.#+.#+.#+.#+.#",
"................................................................",
"#.+#.+#.+#.+#.+#.+#.+#.+#.+#.+#.+#.+#.+#.+#.+#.+#.+#.+#.+#.+#.+#.",
"................................................................",
".#+.#+.#+.#+.#+.#+.#+.#+.#+.#+.#+.#+.#+.#+.#+.#+.#+.#+.#+.#+.#+.#",
"................................................................",
"#.+#.+#.+#.+#.+#.+#.+#.+#.+#.+#.+#.+#.+#.+#.+#.+#.+#.+#.+#.+#.+#.",
"................................................................",
".#+.#+.#+.#+.#+.#+.#+.#+.#+.#+.#+.#+.#+.#+.#+.#+.#+.#+.#+.#+.#+.#",
"................................................................",
"#.+#.+#.+#.+#.+#.+#.+#.+#.+#.+#.+#.+#.+#.+#.+#.+#.+#.+#.+#.+#.+#.",
"................................................................",
".#+.#+.#+.#+.#+.#+.#+.#+.#+.#+.#+.#+.#+.#+.#+.#+.#+.#+.#+.#+.#+.#",
"................................................................",
"#.+#.+#.+#.+#.+#.+#.+#.+#.+#.+#.+#.+#.+#.+#.+#.+#.+#.+#.+#.+#.+#.",
"................................................................",
".#+.#+.#+.#+.#+.#+.#+.#+.#+.#+.#+.#+.#+.#+.#+.#+.#+.#+.#+.#+.#+.#",
"................................................................",
"#.+#.+#.+#.+#.+#.+#.+#.+#.+#.+#.+#.+#.+#.+#.+#.+#.+#.+#.+#.+#.+#.",
"................................................................",
".#+.#+.#+.#+.#+.#+.#+.#+.#+.#+.#+.#+.#+.#+.#+.#+.#+.#+.#+.#+.#+.#",
"................................................................",
"#.+#.+#.+#.+#.+#.+#.+#.+#.+#.+#.+#.+#.+#.+#.+#.+#.+#.+#.+#.+#.+#.",
"................................................................",
".#+.#+.#+.#+.#+.#+.#+.#+.#+.#+.#+.#+.#+.#+.#+.#+.#+.#+.#+.#+.#+.#",
"................................................................",
"#.+#.+#.+#.+#.+#.+#.+#.+#.+#.+#.+#.+#.+#.+#.+#.+#.+#.+#.+#.+#.+#.",
"................................................................",
".#+.#+.#+.#+.#+.#+.#+.#+.#+.#+.#+.#+.#+.#+.#+.#+.#+.#+.#+.#+.#+.#",
"................................................................",
"#.+#.+#.+#.+#.+#.+#.+#.+#.+#.+#.+#.+#.+#.+#.+#.+#.+#.+#.+#.+#.+#.",
"................................................................",
".#+.#+.#+.#+.#+.#+.#+.#+.#+.#+.#+.#+.#+.#+.#+.#+.#+.#+.#+.#+.#+.#",
"................................................................",
"#.+#.+#.+#.+#.+#.+#.+#.+#.+#.+#.+#.+#.+#.+#.+#.+#.+#.+#.+#.+#.+#.",
"................................................................",
".#+.#+.#+.#+.#+.#+.#+.#+.#+.#+.#+.#+.#+.#+.#+.#+.#+.#+.#+.#+.#+.#",
"................................................................",
"#.+#.+#.+#.+#.+#.+#.+#.+#.+#.+#.+#.+#.+#.+#.+#.+#.+#.+#.+#.+#.+#.",
"................................................................",
".#+.#+.#+.#+.#+.#+.#+.#+.#+.#+.#+.#+.#+.#+.#+.#+.#+.#+.#+.#+.#+.#",
"................................................................",
"#.+#.+#.+#.+#.+#.+#.+#.+#.+#.+#.+#.+#.+#.+#.+#.+#.+#.+#.+#.+#.+#.",
"................................................................",
".#+.#+.#+.#+.#+.#+.#+.#+.#+.#+.#+.#+.#+.#+.#+.#+.#+.#+.#+.#+.#+.#",
"................................................................",
"#.+#.+#.+#.+#.+#.+#.+#.+#.+#.+#.+#.+#.+#.+#.+#.+#.+#.+#.+#.+#.+#.",
"................................................................",
".#+.#+.#+.#+.#+.#+.#+.#+.#+.#+.#+.#+.#+.#+.#+.#+.#+.#+.#+.#+.#+.#",
"................................................................",
"#.+#.+#.+#.+#.+#.+#.+#.+#.+#.+#.+#.+#.+#.+#.+#.+#.+#.+#.+#.+#.+#.",
"................................................................",
".#+.#+.#+.#+.#+.#+.#+.#+.#+.#+.#+.#+.#+.#+.#+.#+.#+.#+.#+.#+.#+.#",
"................................................................",
"#.+#.+#.+#.+#.+#.+#.+#.+#.+#.+#.+#.+#.+#.+#.+#.+#.+#.+#.+#.+#.+#.",
"................................................................",
".#+.#+.#+.#+.#+.#+.#+.#+.#+.#+.#+.#+.#+.#+.#+.#+.#+.#+.#+.#+.#+.#",
"................................................................",
"#.+#.+#.+#.+#.+#.+#.+#.+#.+#.+#.+#.+#.+#.+#.+#.+#.+#.+#.+#.+#.+#.",
"................................................................",
".#+.#+.#+.#+.#+.#+.#+.#+.#+.#+.#+.#+.#+.#+.#+.#+.#+.#+.#+.#+.#+.#",
"................................................................",
"#.+#.+#.+#.+#.+#.+#.+#.+#.+#.+#.+#.+#.+#.+#.+#.+#.+#.+#.+#.+#.+#."
};
