/* XPM */
static char *ceiling[] = {
/* columns rows colors chars-per-pixel */
"64 64 7 1 ",
"  c gray14",
". c #2D2D2D",
"X c #383737",
"o c #414141",
"O c #4B4C4F",
"+ c #585858",
"@ c gray43",
/* pixels */
"+@@@@@@@@@@@++o +@@@@@@@@@@@++o +@@@@@@@@@@@++o +@@@@@@@@@@@++o ",
"@+++++++O++++oX @+++++++O++++oX @+++++++O++++oX @+++++++O++++oX ",
"@++++OO+++++Ooo @++++OO+++++Ooo @++++OO+++++Ooo @++++OO+++++Ooo ",
"@oO+Ooo++OO+oOo @oO+Ooo++OO+oOo @oO+Ooo++OO+oOo @oO+Ooo++OO+oOo ",
"@X+oXoOoOOooOXo @X+oXoOoOOooOXo @X+oXoOoOOooOXo @X+oXoOoOOooOXo ",
"+OXXoXooOoXooX. +OXXoXooOoXooX. +OXXoXooOoXooX. +OXXoXooOoXooX. ",
"XXXXXXXXXX.XX.X XXXXXXXXXX.XX.X XXXXXXXXXX.XX.X XXXXXXXXXX.XX.X ",
"..  ..   ...   ...  ..   ...   ...  ..   ...   ...  ..   ...   .",
"@@++@@+ +@@@@@@@@@++@@+ +@@@@@@@@@++@@+ +@@@@@@@@@++@@+ +@@@@@@@",
"++O++oX @++++O++++O++oX @++++O++++O++oX @++++O++++O++oX @++++O++",
"+OO++Oo @+++o++++OO++Oo @+++o++++OO++Oo @+++o++++OO++Oo @+++o+++",
"+OOO++X @+O+Oo+++OOO++X @+O+Oo+++OOO++X @+O+Oo+++OOO++X @+O+Oo++",
"OXooO+X +Oo++O++OXooO+X +Oo++O++OXooO+X +Oo++O++OXooO+X +Oo++O++",
"XXXoooX +oX+OoOoXXXoooX +oX+OoOoXXXoooX +oX+OoOoXXXoooX +oX+OoOo",
"XXXXXXX XXXXXXXXXXXXXXX XXXXXXXXXXXXXXX XXXXXXXXXXXXXXX XXXXXXXX",
"......    ............    ............    ............    ......",
"+@@@@@@@@@@@++o +@@@@@@@@@@@++o +@@@@@@@@@@@++o +@@@@@@@@@@@++o ",
"@+++++++O++++oX @+++++++O++++oX @+++++++O++++oX @+++++++O++++oX ",
"@++++OO+++++Ooo @++++OO+++++Ooo @++++OO+++++Ooo @++++OO+++++Ooo ",
"@oO+Ooo++OO+oOo @oO+Ooo++OO+oOo @oO+Ooo++OO+oOo @oO+Ooo++OO+oOo ",
"@X+oXoOoOOooOXo @X+oXoOoOOooOXo @X+oXoOoOOooOXo @X+oXoOoOOooOXo ",
"+OXXoXooOoXooX. +OXXoXooOoXooX. +OXXoXooOoXooX. +OXXoXooOoXooX. ",
"XXXXXXXXXX.XX.X XXXXXXXXXX.XX.X XXXXXXXXXX.XX.X XXXXXXXXXX.XX.X ",
"..  ..   ...   ...  ..   ...   ...  ..   ...   ...  ..   ...   .",
"@@++@@+ +@@@@@@@@@++@@+ +@@@@@@@@@++@@+ +@@@@@@@@@++@@+ +@@@@@@@",
"++O++oX @++++O++++O++oX @++++O++++O++oX @++++O++++O++oX @++++O++",
"+OO++Oo @+++o++++OO++Oo @+++o++++OO++Oo @+++o++++OO++Oo @+++o+++",
"+OOO++X @+O+Oo+++OOO++X @+O+Oo+++OOO++X @+O+Oo+++OOO++X @+O+Oo++",
"OXooO+X +Oo++O++OXooO+X +Oo++O++OXooO+X +Oo++O++OXooO+X +Oo++O++",
"XXXoooX +oX+OoOoXXXoooX +oX+OoOoXXXoooX +oX+OoOoXXXoooX +oX+OoOo",
"XXXXXXX XXXXXXXXXXXXXXX XXXXXXXXXXXXXXX XXXXXXXXXXXXXXX XXXXXXXX",
"......    ............    ............    ............    ......",
"+@@@@@@@@@@@++o +@@@@@@@@@@@++o +@@@@@@@@@@@++o +@@@@@@@@@@@++o ",
"@+++++++O++++oX @+++++++O++++oX @+++++++O++++oX @+++++++O++++oX ",
"@++++OO+++++Ooo @++++OO+++++Ooo @++++OO+++++Ooo @++++OO+++++Ooo ",
"@oO+Ooo++OO+oOo @oO+Ooo++OO+oOo @oO+Ooo++OO+oOo @oO+Ooo++OO+oOo ",
"@X+oXoOoOOooOXo @X+oXoOoOOooOXo @X+oXoOoOOooOXo @X+oXoOoOOooOXo ",
"+OXXoXooOoXooX. +OXXoXooOoXooX. +OXXoXooOoXooX. +OXXoXooOoXooX. ",
"XXXXXXXXXX.XX.X XXXXXXXXXX.XX.X XXXXXXXXXX.XX.X XXXXXXXXXX.XX.X ",
"..  ..   ...   ...  ..   ...   ...  ..   ...   ...  ..   ...   .",
"@@++@@+ +@@@@@@@@@++@@+ +@@@@@@@@@++@@+ +@@@@@@@@@++@@+ +@@@@@@@",
"++O++oX @++++O++++O++oX @++++O++++O++oX @++++O++++O++oX @++++O++",
"+OO++Oo @+++o++++OO++Oo @+++o++++OO++Oo @+++o++++OO++Oo @+++o+++",
"+OOO++X @+O+Oo+++OOO++X @+O+Oo+++OOO++X @+O+Oo+++OOO++X @+O+Oo++",
"OXooO+X +Oo++O++OXooO+X +Oo++O++OXooO+X +Oo++O++OXooO+X +Oo++O++",
"XXXoooX +oX+OoOoXXXoooX +oX+OoOoXXXoooX +oX+OoOoXXXoooX +oX+OoOo",
"XXXXXXX XXXXXXXXXXXXXXX XXXXXXXXXXXXXXX XXXXXXXXXXXXXXX XXXXXXXX",
"......    ............    ............    ............    ......",
"+@@@@@@@@@@@++o +@@@@@@@@@@@++o +@@@@@@@@@@@++o +@@@@@@@@@@@++o ",
"@+++++++O++++oX @+++++++O++++oX @+++++++O++++oX @+++++++O++++oX ",
"@++++OO+++++Ooo @++++OO+++++Ooo @++++OO+++++Ooo @++++OO+++++Ooo ",
"@oO+Ooo++OO+oOo @oO+Ooo++OO+oOo @oO+Ooo++OO+oOo @oO+Ooo++OO+oOo ",
"@X+oXoOoOOooOXo @X+oXoOoOOooOXo @X+oXoOoOOooOXo @X+oXoOoOOooOXo ",
"+OXXoXooOoXooX. +OXXoXooOoXooX. +OXXoXooOoXooX. +OXXoXooOoXooX. ",
"XXXXXXXXXX.XX.X XXXXXXXXXX.XX.X XXXXXXXXXX.XX.X XXXXXXXXXX.XX.X ",
"..  ..   ...   ...  ..   ...   ...  ..   ...   ...  ..   ...   .",
"@@++@@+ +@@@@@@@@@++@@+ +@@@@@@@@@++@@+ +@@@@@@@@@++@@+ +@@@@@@@",
"++O++oX @++++O++++O++oX @++++O++++O++oX @++++O++++O++oX @++++O++",
"+OO++Oo @+++o++++OO++Oo @+++o++++OO++Oo @+++o++++OO++Oo @+++o+++",
"+OOO++X @+O+Oo+++OOO++X @+O+Oo+++OOO++X @+O+Oo+++OOO++X @+O+Oo++",
"OXooO+X +Oo++O++OXooO+X +Oo++O++OXooO+X +Oo++O++OXooO+X +Oo++O++",
"XXXoooX +oX+OoOoXXXoooX +oX+OoOoXXXoooX +oX+OoOoXXXoooX +oX+OoOo",
"XXXXXXX XXXXXXXXXXXXXXX XXXXXXXXXXXXXXX XXXXXXXXXXXXXXX XXXXXXXX",
"......    ............    ............    ............    ......"
};
