/* XPM */
static char *result[] = {
/* columns rows colors chars-per-pixel */
"16 16 6 1 ",
"  c #C9C097",
". c #D1CE9A",
"X c #D6D99F",
"o c #DFE4A8",
"O c #E3ECC2",
"+ c #ECF3DF",
/* pixels */
"o.XoOOXoO .X.O.X",
"XXoO.XOO..XoXoOo",
"+OO. .XoOXO+oXo+",
" .XOX .oXoX.OO+.",
".XXoOXoXO.  XO. ",
"X.oO+OXXO  .oOX.",
"ooOX..OXoOXO+OoX",
"OO.. .XoOoOX..Oo",
"oXX  XoX OX.  oO",
"XOO.XoO .XOX. Xo",
"O .OoXO.XXoOXXoO",
" .XXO++ooO .OOOX",
".Xoo+X.OO .X.Xoo",
"OooOO.  XXXoXoX+",
".OOoX ..XoOOOO+ ",
"X.oOX.XXOX .oO ."
};
