/* XPM */
static char *south_xpm[] = {
"64 64 4 1",
"  c #696969",
". c #808080",
"+ c #A9A9A9",
"# c #3F3F3F",
" . .+. .+. .+. .+. .+. .+. .+. .+. .+. .+. .+. .+. .+. .+. .+. .",
".+.+.+.+.+.+.+.+.+.+.+.+.+.+.+.+.+.+.+.+.+.+.+.+.+.+.+.+.+.+.+.+",
"+. .+. .+. .+. .+. .+. .+. .+. .+. .+. .+. .+. .+. .+. .+. .+. .",
".+.+.+.+.+.+.+.+.+.+.+.+.+.+.+.+.+.+.+.+.+.+.+.+.+.+.+.+.+.+.+.+",
" . .+. .+. .+. .+. .+. .+. .+. .+. .+. .+. .+. .+. .+. .+. .+. .",
".+.+.+.+.+.+.+.+.+.+.+.+.+.+.+.+.+.+.+.+.+.+.+.+.+.+.+.+.+.+.+.+",
"+. .+. .+. .+. .+. .+. .+. .+. .+. .+. .+. .+. .+. .+. .+. .+. .",
".+.+.+.+.+.+.+.+.+.+.+.+.+.+.+.+.+.+.+.+.+.+.+.+.+.+.+.+.+.+.+.+",
" . .+. .+. .+. .+. .+. .+. .+. .+. .+. .+. .+. .+. .+. .+. .+. .",
".+.+.+.+.+.+.+.+.+.+.+.+.+.+.+.+.+.+.+.+.+.+.+.+.+.+.+.+.+.+.+.+",
"+. .+. .+. .+. .+. .+. .+. .+. .+. .+. .+. .+. .+. .+. .+. .+. .",
".+.+.+.+.+.+.+.+.+.+.+.+.+.+.+.+.+.+.+.+.+.+.+.+.+.+.+.+.+.+.+.+",
" . .+. .+. .+. .+. .+. .+. .+. .+. .+. .+. .+. .+. .+. .+. .+. .",
".+.+.+.+.+.+.+.+.+.+.+.+.+.+.+.+.+.+.+.+.+.+.+.+.+.+.+.+.+.+.+.+",
"+. .+. .+. .+. .+. .+. .+. .+. .+. .+. .+. .+. .+. .+. .+. .+. .",
".+.+.+.+.+.+.+.+.+.+.+.+.+.+.+.+.+.+.+.+.+.+.+.+.+.+.+.+.+.+.+.+",
" . .+. .+. .+. .+. .+. .+. .+. .+. .+. .+. .+. .+. .+. .+. .+. .",
".+.+.+.+.+.+.+.+.+.+.+.+.+.+.+.+.+.+.+.+.+.+.+.+.+.+.+.+.+.+.+.+",
"+. .+. .+. .+. .+. .+. .+. .+. .+. .+. .+. .+. .+. .+. .+. .+. .",
".+.+.+.+.+.+.+.+.+.+.+.+.+.+.+.+.+.+.+.+.+.+.+.+.+.+.+.+.+.+.+.+",
" . .+. .+. .+. .+. .+. .+. .+. .+. .+. .+. .+. .+. .+. .+. .+. .",
".+.+.+.+.+.+.+.+.+.+.+.+.+.+.+.+.+.+.+.+.+.+.+.+.+.+.+.+.+.+.+.+",
"+. .+. .+. .+. .+. .+. .+. .+. .+. .+. .+. .+. .+. .+. .+. .+. .",
".+.+.+.+.+.+.+.+.+.+.+.+.+.+.+.+.+.+.+.+.+.+.+.+.+.+.+.+.+.+.+.+",
" . .+. .+. .+. .+. .+. .+. .+. .+. .+. .+. .+. .+. .+. .+. .+. .",
".+.+.+.+.+.+.+.+.+.+.+.+.+.+.+.+.+.+.+.+.+.+.+.+.+.+.+.+.+.+.+.+",
"+. .+. .+. .+. .+. .+. .+. .+. .+. .+. .+. .+. .+. .+. .+. .+. .",
".+.+.+.+.+.+.+.+.+.+.+.+.+.+.+.+.+.+.+.+.+.+.+.+.+.+.+.+.+.+.+.+",
" . .+. .+. .+. .+. .+. .+. .+. .+. .+. .+. .+. .+. .+. .+. .+. .",
".+.+.+.+.+.+.+.+.+.+.+.+.+.+.+.+.+.+.+.+.+.+.+.+.+.+.+.+.+.+.+.+",
"+. .+. .+. .+. .+. .+. .+. .+. .+. .+. .+. .+. .+. .+. .+. .+. .",
".+.+.+.+.+.+.+.+.+.+.+.+.+.+.+.+.+.+.+.+.+.+.+.+.+.+.+.+.+.+.+.+",
" . .+. .+. .+. .+. .+. .+. .+. .+. .+. .+. .+. .+. .+. .+. .+. .",
".+.+.+.+.+.+.+.+.+.+.+.+.+.+.+.+.+.+.+.+.+.+.+.+.+.+.+.+.+.+.+.+",
"+. .+. .+. .+. .+. .+. .+. .+. .+. .+. .+. .+. .+. .+. .+. .+. .",
".+.+.+.+.+.+.+.+.+.+.+.+.+.+.+.+.+.+.+.+.+.+.+.+.+.+.+.+.+.+.+.+",
" . .+. .+. .+. .+. .+. .+. .+. .+. .+. .+. .+. .+. .+. .+. .+. .",
".+.+.+.+.+.+.+.+.+.+.+.+.+.+.+.+.+.+.+.+.+.+.+.+.+.+.+.+.+.+.+.+",
"+. .+. .+. .+. .+. .+. .+. .+. .+. .+. .+. .+. .+. .+. .+. .+. .",
".+.+.+.+.+.+.+.+.+.+.+.+.+.+.+.+.+.+.+.+.+.+.+.+.+.+.+.+.+.+.+.+",
" . .+. .+. .+. .+. .+. .+. .+. .+. .+. .+. .+. .+. .+. .+. .+. .",
".+.+.+.+.+.+.+.+.+.+.+.+.+.+.+.+.+.+.+.+.+.+.+.+.+.+.+.+.+.+.+.+",
"+. .+. .+. .+. .+. .+. .+. .+. .+. .+. .+. .+. .+. .+. .+. .+. .",
".+.+.+.+.+.+.+.+.+.+.+.+.+.+.+.+.+.+.+.+.+.+.+.+.+.+.+.+.+.+.+.+",
" . .+. .+. .+. .+. .+. .+. .+. .+. .+. .+. .+. .+. .+. .+. .+. .",
".+.+.+.+.+.+.+.+.+.+.+.+.+.+.+.+.+.+.+.+.+.+.+.+.+.+.+.+.+.+.+.+",
"+. .+. .+. .+. .+. .+. .+. .+. .+. .+. .+. .+. .+. .+. .+. .+. .",
".+.+.+.+.+.+.+.+.+.+.+.+.+.+.+.+.+.+.+.+.+.+.+.+.+.+.+.+.+.+.+.+",
" . .+. .+. .+. .+. .+. .+. .+. .+. .+. .+. .+. .+. .+. .+. .+. .",
".+.+.+.+.+.+.+.+.+.+.+.+.+.+.+.+.+.+.+.+.+.+.+.+.+.+.+.+.+.+.+.+",
"+. .+. .+. .+. .+. .+. .+. .+. .+. .+. .+. .+. .+. .+. .+. .+. .",
".+.+.+.+.+.+.+.+.+.+.+.+.+.+.+.+.+.+.+.+.+.+.+.+.+.+.+.+.+.+.+.+",
" . .+. .+. .+. .+. .+. .+. .+. .+. .+. .+. .+. .+. .+. .+. .+. .",
".+.+.+.+.+.+.+.+.+.+.+.+.+.+.+.+.+.+.+.+.+.+.+.+.+.+.+.+.+.+.+.+",
"+. .+. .+. .+. .+. .+. .+. .+. .+. .+. .+. .+. .+. .+. .+. .+. .",
".+.+.+.+.+.+.+.+.+.+.+.+.+.+.+.+.+.+.+.+.+.+.+.+.+.+.+.+.+.+.+.+",
" . .+. .+. .+. .+. .+. .+. .+. .+. .+. .+. .+. .+. .+. .+. .+. .",
".+.+.+.+.+.+.+.+.+.+.+.+.+.+.+.+.+.+.+.+.+.+.+.+.+.+.+.+.+.+.+.+",
"+. .+. .+. .+. .+. .+. .+. .+. .+. .+. .+. .+. .+. .+. .+. .+. .",
".+.+.+.+.+.+.+.+.+.+.+.+.+.+.+.+.+.+.+.+.+.+.+.+.+.+.+.+.+.+.+.+",
" . .+. .+. .+. .+. .+. .+. .+. .+. .+. .+. .+. .+. .+. .+. .+. .",
".+.+.+.+.+.+.+.+.+.+.+.+.+.+.+.+.+.+.+.+.+.+.+.+.+.+.+.+.+.+.+.+",
"+. .+. .+. .+. .+. .+. .+. .+. .+. .+. .+. .+. .+. .+. .+. .+. .",
".+.+.+.+.+.+.+.+.+.+.+.+.+.+.+.+.+.+.+.+.+.+.+.+.+.+.+.+.+.+.+.+"
};
