/* XPM */
static char *west_xpm[] = {
"64 64 4 1",
"  c #8B4513",
". c #A0522D",
"+ c #D2691E",
"# c #5C4033",
" # # # # # # # # # # # # # # # # # # # # # # # # # # # # # # # #",
"................................................................",
"................................................................",
"................................................................",
"................................................................",
"................................................................",
"................................................................",
" # # # # # # # # # # # # # # # # # # # # # # # # # # # # # # # #",
"................................................................",
"................................................................",
"..+++..+++..+++..+++..+++..+++..+++..+++..+++..+++..+++..+++..++.",
"................................................................",
"................................................................",
"................................................................",
"................................................................",
" # # # # # # # # # # # # # # # # # # # # # # # # # # # # # # # #",
"................................................................",
"................................................................",
"................................................................",
"................................................................",
"................................................................",
"................................................................",
" # # # # # # # # # # # # # # # # # # # # # # # # # # # # # # # #",
"................................................................",
"................................................................",
"..+++..+++..+++..+++..+++..+++..+++..+++..+++..+++..+++..+++..++.",
"................................................................",
"................................................................",
"................................................................",
"................................................................",
" # # # # # # # # # # # # # # # # # # # # # # # # # # # # # # # #",
"................................................................",
"................................................................",
"................................................................",
"................................................................",
"................................................................",
"................................................................",
" # # # # # # # # # # # # # # # # # # # # # # # # # # # # # # # #",
"................................................................",
"................................................................",
"..+++..+++..+++..+++..+++..+++..+++..+++..+++..+++..+++..+++..++.",
"................................................................",
"................................................................",
"................................................................",
"................................................................",
" # # # # # # # # # # # # # # # # # # # # # # # # # # # # # # # #",
"................................................................",
"................................................................",
"................................................................",
"................................................................",
"................................................................",
"................................................................",
" # # # # # # # # # # # # # # # # # # # # # # # # # # # # # # # #",
"................................................................",
"................................................................",
"..+++..+++..+++..+++..+++..+++..+++..+++..+++..+++..+++..+++..++.",
"................................................................",
"................................................................",
"................................................................",
"................................................................",
" # # # # # # # # # # # # # # # # # # # # # # # # # # # # # # # #",
"................................................................",
"................................................................",
"................................................................"
};
