/* XPM */
static char *enderman[] = {
/* columns rows colors chars-per-pixel */
"24 64 77 1 ",
"  c None",
". c #000000",
"X c #000100",
"o c #010101",
"O c #000200",
"+ c #020202",
"@ c #030303",
"# c #020501",
"$ c #030503",
"% c #030603",
"& c #040404",
"* c #050505",
"= c #040604",
"- c #040704",
"; c #060606",
": c #070707",
"> c #050805",
", c #070907",
"< c #070A06",
"1 c #080A07",
"2 c #080808",
"3 c #090909",
"4 c #080A08",
"5 c #0A0A0A",
"6 c #0B0B0B",
"7 c #0B0D0B",
"8 c #0C0C0C",
"9 c #0C0D0C",
"0 c #0D0D0D",
"q c #0D0E0D",
"w c #0E0E0E",
"e c #0F0F0F",
"r c #101010",
"t c #111111",
"y c #101210",
"u c #101310",
"i c #121212",
"p c #131313",
"a c #111411",
"s c #141414",
"d c #141514",
"f c #151515",
"g c #151615",
"h c #161616",
"j c #171717",
"k c #1A171A",
"l c #1D111D",
"z c #221822",
"x c #241B24",
"c c #2B1A2B",
"v c #2A1E2A",
"b c #2F0D32",
"n c #300534",
"m c #311531",
"M c #3C1C3D",
"N c #3D0542",
"B c #3C0941",
"V c #3D0D41",
"C c #48044F",
"Z c #441C46",
"A c #47164B",
"S c #4C1C4E",
"D c #551F59",
"F c #442446",
"G c #452846",
"H c #4A284B",
"J c #512A52",
"K c #613362",
"L c #673568",
"P c #D60DE9",
"I c #D812EB",
"U c #DE3DE8",
"Y c #E131EE",
"T c #C156C3",
"R c #E05BE4",
"E c #E658EB",
"W c #E664E8",
/* pixels */
"      5+p5+++++p5+      ",
"      5+pp5+++5p5+      ",
"      5+ppp++5pp5+      ",
"      pp+5ppppp+5p      ",
"      5++1ppppp++5      ",
"      lZNAGkpvFnbm      ",
"      JRIYTzpLEPUW      ",
"      zHVVMlpvSCDK      ",
"      55+>>555++>p      ",
"      5++55++555+p      ",
"    ++55+++++++++5+     ",
"    ++5p555>++55p++5    ",
"    p+5p+ppp+5ppp+5p    ",
"    p+5p+ppp+p5+p+5p    ",
"   pp++++ppp+p5+p+5p    ",
"   pp++++ppp+p5+p55p    ",
"   pp+5ppppp+p5+p5+p    ",
"   p5+pp+pp+pp5+p5+p    ",
"   pp5pp5555pp5+pp5p    ",
"   pppppp55ppp5+pppp    ",
"   p5+ppppppp55pp5+pp   ",
"   p++pp5ppp5555pp+5p   ",
"   p5+pp+ppp+p5+pp5pp   ",
"   pp pp+5pp+p5+ppppp   ",
"  ppp ppp+5ppppp+ ppp   ",
"  ppp pppp55pppp+ ppp   ",
"  ppp pppp5+pppp+ ppp   ",
"  ppp   p++  +pp  ppp   ",
"  ppp   p++  +pk  ppp   ",
"  ppp   p++  +pk  pppp  ",
"  ppp   p55  5pp   ppp  ",
"  ppp   ppp  pp    pp5  ",
"  +p    p5+  +p    p5+  ",
"  pp    p++  +p    ppp  ",
" 555    p55  5p    555  ",
" 5++    ppp ppp    5++  ",
" pp+    ppp ppp    5+p  ",
" ppp    ppp ppp    55p  ",
" ppp    ppp ppp    pppp ",
" ppp    ppp ppp     ppp ",
" ppp    ppp ppp     ppp ",
" ppp    ppp ppp     ppp ",
" +p     ppp ppp     pp5 ",
"55p     ppp pp5     pp+ ",
"5pp     55p pp5     ppp ",
"++p     55p ppp     5p5 ",
"+++     ppp 5++     +5++",
"+++     +++ 5+p      +++",
"+++     5++ 5pp      +++",
"++      pp+ ppp      +++",
"        ppp ppp      +++",
"        ppp ppp         ",
"        ppp ppp         ",
"        ppp p5+         ",
"        ppp ppp         ",
"        55p pp5         ",
"        +5p 5++         ",
"        ppp +++         ",
"        55p +++         ",
"        ++5 +++         ",
"        +++             ",
"        +++             ",
"        +++             ",
"        +++             "
};
