/* XPM */
static char *enderman_angry[] = {
/* columns rows colors chars-per-pixel */
"49 128 149 2 ",
"   c None",
".  c #000000",
"X  c #010101",
"o  c #020000",
"O  c #000202",
"+  c #020202",
"@  c #030303",
"#  c #040000",
"$  c #050000",
"%  c #030505",
"&  c #040404",
"*  c #050505",
"=  c #060404",
"-  c #050606",
";  c #060606",
":  c #070707",
">  c #0D0707",
",  c #060808",
"<  c #070808",
"1  c #080808",
"2  c #090909",
"3  c #090A0A",
"4  c #0A0A0A",
"5  c #0B0B0B",
"6  c #0D0B0B",
"7  c #090C0C",
"8  c #0A0C0C",
"9  c #0A0D0D",
"0  c #0B0D0D",
"q  c #0C0C0C",
"w  c #0C0D0D",
"e  c #0D0D0D",
"r  c #0D0E0E",
"t  c #0E0E0E",
"y  c #0E0F0F",
"u  c #0F0F0F",
"i  c #1E0000",
"p  c #160909",
"a  c #180909",
"s  c #0F1010",
"d  c #101010",
"f  c #101111",
"g  c #111111",
"h  c #121212",
"j  c #131313",
"k  c #121414",
"l  c #131414",
"z  c #141414",
"x  c #151414",
"c  c #141515",
"v  c #151515",
"b  c #151616",
"n  c #161616",
"m  c #171616",
"M  c #171717",
"N  c #181616",
"B  c #280303",
"V  c #200909",
"C  c #220D0D",
"Z  c #320101",
"A  c #211515",
"S  c #251515",
"D  c #261515",
"F  c #251919",
"G  c #361313",
"H  c #292020",
"J  c #2E2323",
"K  c #302323",
"L  c #342424",
"P  c #4A0101",
"I  c #490303",
"U  c #540808",
"Y  c #580D0D",
"T  c #491A1A",
"R  c #541111",
"E  c #571111",
"W  c #5A1010",
"Q  c #650101",
"!  c #650202",
"~  c #680202",
"^  c #6E0101",
"/  c #6E0202",
"(  c #640F0F",
")  c #6D0C0C",
"_  c #6D0F0F",
"`  c #6E0E0E",
"'  c #700E0E",
"]  c #720F0F",
"[  c #750E0E",
"{  c #7E0D0D",
"}  c #7C0E0E",
"|  c #601111",
" . c #651010",
".. c #661010",
"X. c #472F2F",
"o. c #492A2A",
"O. c #492B2B",
"+. c #542525",
"@. c #4A3232",
"#. c #4B3333",
"$. c #4E3434",
"%. c #543737",
"&. c #6C2424",
"*. c #6C2D2D",
"=. c #702525",
"-. c #752E2E",
";. c #654040",
":. c #664242",
">. c #6C4545",
",. c #744444",
"<. c #764545",
"1. c #714848",
"2. c #754949",
"3. c #7B4848",
"4. c #7E4A4A",
"5. c #794D4D",
"6. c #8B0202",
"7. c #8A3333",
"8. c #903737",
"9. c #F90303",
"0. c #FF0303",
"q. c #F90404",
"w. c #FF0404",
"e. c #844D4D",
"r. c #895151",
"t. c #935B5B",
"y. c #9F6060",
"u. c #FE5353",
"i. c #FE5555",
"p. c #F65858",
"a. c #F75B5B",
"s. c #FC5858",
"d. c #FE5A5A",
"f. c #FF5B5B",
"g. c #FF5E5E",
"h. c #EF8B8B",
"j. c #F18C8C",
"k. c #F38D8D",
"l. c #F48E8E",
"z. c #F58E8E",
"x. c #F68F8F",
"c. c #F59090",
"v. c #F99393",
"b. c #FE9393",
"n. c #FB9494",
"m. c #FC9595",
"M. c #FD9595",
"N. c #FE9696",
"B. c #FF9696",
/* pixels */
"                          y X X y M d y X X X X X X X X X X y d d y X X                           ",
"                          y X X y d d y X X X X X X X X X i < D D y X X                           ",
"                        d d X X y d d y X X X X X X X X Z ^ U ' R a X X                           ",
"                        d y X X y d d d d d X X X X X X Y ) W  .' p X X                           ",
"                        d X X X y d d d M d X X X X X X G } D  .R y X X                           ",
"                        y X X X y d d d M d y X X X X 1  ._ } ' ) C X X                           ",
"                        d d d d y X X y M M d d d d d d D  .C P B y d d                           ",
"                        d d d d y X X y M d M M d d d d N M y X X y d d                           ",
"                        d d y y y X X y d d d d d M d d d d y X X y d d                           ",
"                        y y X X X X X y d d d d d M d d d d y X X X X X                           ",
"                        y y X X X X X y d d d d d d d d d d y X X X X X                           ",
"                        X F 4.4.=.^ ^ -.4.1.H d d d d H :.:.+.P P T o.o.                          ",
"                        < X.l.N.u.w.w.g.N.l.@.d M M d @.l.N.a.w.w.a.c.l.                          ",
"                        y @.l.N.g.w.w.u.N.c.%.d M M d @.l.N.g.w.w.g.N.N.                          ",
"                        s F >.1.*.! ! &.<.<.L d d M d L e.r.7.6.6.8.t.t.                          ",
"                        y y d d y X X X X X s d d M M d X X X X X y d d                           ",
"                        y y d d y X X X X X d d d d d d X X X X X y d d                           ",
"                        y y y X X 1 d d p d y X X X y d y y y y X X y d                           ",
"                        y d y X X y d d d d y X X X X y d d d d X X y d                           ",
"                        y d X X X X X X X X X X X X X X X X X X X X y d                           ",
"                        y d y X X X X X X X X X X X X X X X X X X X y d     X                     ",
"                X X X X X d d X X X X X X X X X X X X X X X X X X X y X X X X X                   ",
"                X X X X X d d d d d d X X X X X X X X X X X X X y d d X X X X X                   ",
"                y y X X X d N d y X y y y y y y X X X y y y y y d d d X X y d d                   ",
"                d d y X X d d d X X X d d d d d y X X d d d d d d d d y X y d d                   ",
"              d d d y X X d d d X X X d d d d d y X X d d d d d d d d 1 X y d d                   ",
"              d d d y X X y d d X X X d M d M M y X X d d d X X y d d y X y d d                   ",
"              d d d y X X y d d X X X d M M M M y X X d d d X X y M d y X y d d                   ",
"              d d d y X X y d y X X X d d d M M y X X d d d X X y d d X X X d M                   ",
"              d d d X X X X X X X X X d d d M M y X X d d d X X y d d y X X d M d                 ",
"              d d d X X X X X X X X X d d d d M y X X d d d X X y d d y X X d d d                 ",
"              d d d X X X y y y y y y d d d d M y X X d d d X X y d d y X X d d d                 ",
"              d d d X X X d d d M M M M d d d d y X X d d d X X y d d y X X d d d                 ",
"              d d d X X X d d d d M M M d d d d y X X d d d X X y d d d X X y M d                 ",
"            d d d y X X y d d d y y y d d d y y y y y d d d X X y d d d X X y d d                 ",
"            d d d y X X d M d d X X X d d y X X y M d d d d X X y M d y X X y d M                 ",
"            d M d y X X d M M d X X X d d y X X y d d d d d X X y d d d X X y d d                 ",
"            M M d d y y y d M M d d d X X y d d d d d d d d X X y M d y d d d d d d               ",
"            d d d d d M y d d d d d d X X y M M d d d d d d X X y M d y d d d d d d               ",
"            d d d d d d   d d d d d d X X y M M d d d d d y X X y d d y d y y d d d               ",
"            d d d X X X   d d d d d M d d d d d d d d X X X d d d d d y y X X d d d               ",
"            d d d X X X   d d d d M M M d d d d d d d X X X d d d d d y y X X y d d               ",
"            d d d X X     d d d d y d d M M M M y y y y y y y y d M d d y X X y d d               ",
"            d d y X X     d d d X X X d M d M M X X X d M d X X y d d   d X X y d d               ",
"          M M M y X X     d d d X X X d M M M d y X X d d d X X y M d   d X X y d d               ",
"          d M M d y y     d d d X X X d M M d d y X X d M d X X y M d   y d d d d d               ",
"          d d d M d M     d M d X X X d d d d d y X X d d d X X y M d   y d d d d d d             ",
"          d d d d M M     d M d y X X d d d d d y X X d d d X X y d d   y d d d d d d             ",
"          M M d d d M     d M M d d d X X y d d d d d d M d d d y X X     d d d d d d             ",
"          M d d d d M     d M M M M d X X y d d d d d d M M M M y X X     M M d d d d             ",
"          M M M d d d     d d d M M d X X y d d d M d d d M d d y X X     M M M d d d             ",
"          M M M d d d     d d d M M d d d y X X d M M M d d d M y X X     d M M d d d             ",
"          d d d d d       d d d d d d d d y X X d M d d d d M M y X X     d d d d d M             ",
"          d d d d d       d M d d d d y y y X X d d d y y d d d y         d d d d d M             ",
"        d d d d d d             d d d X X X         y X X d d d           d d d M M M M           ",
"        d d d d d d             d d d X X X         y X X d d d           d d M M M M M           ",
"        M M M d d d             d M d X X X         y X X d M M           d d d M M M d           ",
"        M M M d d d             d M d X X X         y X X d M M             d d M M d d           ",
"        M M d d d M             d M d X X X         X X X d M M             d d M M M M           ",
"        d M d M d M             M M d X X X         X X X d M M             d d M M M d           ",
"        d M d M d d             d M d X X X         X X X d d M             M M d d d d           ",
"        d d d d d               d d d d d d         y y d d d d             d M d d d d           ",
"        d M d d d               d d d d d d         d d d d d d             d d d d d d           ",
"        y y d d d               d d d d d d         d d d d d d             d d d d y y y         ",
"      y X X y d d               d d d X X X         X X X d d d             d d d d X X X         ",
"      y X X y d d               d d d X X X         X X X d d d             d d d d X X X         ",
"      d d y d d d               d d d X X X         X X X d d d               d M d d d d         ",
"      d d d d d d               d d d X X X         X X X d d                 d M M M M d         ",
"      d d d d d d               M M d X X X         X X y d M M               d d d d d d         ",
"      X X X X X X               d M d d d d         d d d M M                 d y X X X X         ",
"      X X X X X                 d M M M M d         d M d d M                 d X X X X X         ",
"      y y y X X                 d d M M d d         d d d d d                 d X X X y y y       ",
"      d d y X X                 M M d d d d       d d d M d M                 d y X X d d d       ",
"    d d d y X X                 M M M d d M       d d d M M M                 d y X X d d d       ",
"    d d d d d d                 M M d d d d       d d d d M M                   y y y d d d       ",
"    d d d M M M                 M M d d d d       d d d d M M                   y d d d d d       ",
"    d d d d M M                 M M d d d d       d d d d d d                   y d d d d d       ",
"    d d d d M M                 M M d d d d       d d d d d d                   d d d d M M       ",
"    d d d M M M                 d d d d M M       d M d M M d                   d d d d M M       ",
"    d d d d M M                 d d d d M M       d M M M M d                   d d d d M M       ",
"    M M d d d                   d M M M d d       d d d d d d                   y d d d d d d     ",
"    d M M d d                   M M M M d d       d d d M d M                   y d d d d d M     ",
"    d M d d M                   d M M M d d       M M d M M M                   y y d d d d d     ",
"  d d d d d d                   d M M M d d       M d d M M M                     y d d d d d     ",
"  X X X d d d                   d d M M M M       d d d d d d                     y d d d d d     ",
"  X X X d d d                   d d M M M M       d d d d M d                     y d d y X X     ",
"  y y y d d d                   d d d d M M       d d d d y y                     y d d y X X     ",
"  d d d d d d                   d d d d M M       d d M y X X                     y d d d X X     ",
"  d d d d d d                   d d y d d d       d d d y X X                     y d M d d d     ",
"  X X y d d                     y X X y d d       d d d d d d                     y d M d d d d   ",
"  X X X M M                     y X X y d d       d M d M M d                     y d d d d y y   ",
"  X X X d d                     d y y d d d       d y y y y y                     X y d d X X X   ",
"X X X X X X                     d d d d d d       y X X X X X                       y d d X X X   ",
"X X X X X X                     d d d d d d       y X X X X X                       X y y X X X   ",
"X X X X X X                     d X X X X X       y X X y d d                       X X X X X X   ",
"X X X X X X                     y X X X X X       y X X d d d                       X X X X X X   ",
"X X X X X X                     d X X X X X       y y y d d d                       X X X X X X   ",
"X X X X X X                     d d d y X X       y d d d d d                       X X X X X X X ",
"X X X X X X                     d d M y X X       d d d d d d                       X X X X X X X ",
"        X                       d d M d y y       d d d d d d                       X X X X X X X ",
"                                d d M M d d       d d d d d M                         X X X X X X ",
"                                d d M M d d       d d d d d M                         X X X X     ",
"                                y d d d d d       d d d d M M                                     ",
"                                y d d d d d       d d d M M M                                     ",
"                                d d M M M M       d M d d d d                                     ",
"                                d d M M M M       d d d d d                                       ",
"                                M M d d d d       d d d X X                                       ",
"                                d d d d d d d     d d d X X                                       ",
"                                d d M d d d M     d M d y y                                       ",
"                                  d M d d d d     d d d d d                                       ",
"                                  d d d d d d     y d d y y                                       ",
"                                  X X y d d d     d d d X X                                       ",
"                                  X X X d d d     y d d X X                                       ",
"                                  X X y d d d     X X X X X                                       ",
"                                  d d d d d M     X X X X X                                       ",
"                                  d d d M d d     X X X X X                                       ",
"                                  y y y d M d   X X X X X X                                       ",
"                                  X X X d M M     X X X X X                                       ",
"                                  X X X d M d     X X X X X                                       ",
"                                  X X X y y y     X X X X X                                       ",
"                                  X X X X X X                                                     ",
"                                  X X X X X X                                                     ",
"                                  X X X X X X                                                     ",
"                                  X X X X X X                                                     ",
"                                  X X X X X X                                                     ",
"                                  X X X X X X                                                     ",
"                                  X X X X X X                                                     ",
"                                  X X X X X X                                                     "
};
